;FLAVOR:Marlin
;TIME:202
;Filament used: 0.113518m
;Layer height: 0.28
;MINX:96.52
;MINY:96.52
;MINZ:0.28
;MAXX:138.48
;MAXY:138.48
;MAXZ:4.76
;Generated with Cura_SteamEngine 4.5.0
M140 S60
M105
M190 S60
M104 S200
M105
M109 S200
M82 ;absolute extrusion mode
; Ender 3 Custom Start G-code
G92 E0 ; Reset Extruder
G28 ; Home all axes
G1 Z2.0 F3000 ; Move Z Axis up little to prevent scratching of Heat Bed
G1 X0.1 Y20 Z0.3 F5000.0 ; Move to start position
G1 X0.1 Y200.0 Z0.3 F1500.0 E15 ; Draw the first line
G1 X0.4 Y200.0 Z0.3 F5000.0 ; Move to side a little
G1 X0.4 Y20 Z0.3 F1500.0 E30 ; Draw the second line
G92 E0 ; Reset Extruder
G1 Z2.0 F3000 ; Move Z Axis up little to prevent scratching of Heat Bed
G1 X5 Y20 Z0.3 F5000.0 ; Move over to prevent blob squish
G92 E0
G92 E0
G1 F1500 E-5
;LAYER_COUNT:17
;LAYER:0
M107
G0 F6000 X102.519 Y102.814 Z0.28
;TYPE:SKIRT
G1 F1500 E0
G1 F1200 X103.224 Y102.128 E0.0458
G1 X104.015 Y101.429 E0.09496
G1 X104.731 Y100.855 E0.13769
G1 X105.568 Y100.247 E0.18586
G1 X106.4 Y99.7 E0.23222
G1 X107.349 Y99.141 E0.28351
G1 X108.218 Y98.687 E0.32916
G1 X108.641 Y98.478 E0.35113
G1 X108.899 Y98.357 E0.3644
G1 X109.448 Y98.118 E0.39228
G1 X109.735 Y98.002 E0.4067
G1 X110.172 Y97.836 E0.42846
G1 X110.816 Y97.607 E0.46029
G1 X111.399 Y97.417 E0.48884
G1 X111.695 Y97.33 E0.50321
G1 X112.152 Y97.207 E0.52525
G1 X112.818 Y97.042 E0.5572
G1 X113.444 Y96.906 E0.58703
G1 X113.76 Y96.847 E0.60199
G1 X114.228 Y96.77 E0.62408
G1 X114.888 Y96.676 E0.65512
G1 X115.48 Y96.608 E0.68287
G1 X115.72 Y96.587 E0.69409
G1 X116.2 Y96.555 E0.71649
G1 X116.842 Y96.527 E0.74641
G1 X117.593 Y96.52 E0.78138
G1 X118.483 Y96.542 E0.82284
G1 X119.531 Y96.619 E0.87177
G1 X120.449 Y96.73 E0.91482
G1 X120.852 Y96.786 E0.93377
G1 X121.142 Y96.832 E0.94744
G1 X121.71 Y96.937 E0.97434
G1 X122.02 Y97.003 E0.9891
G1 X122.536 Y97.126 E1.0138
G1 X123.021 Y97.254 E1.03715
G1 X123.661 Y97.444 E1.06824
G1 X124.461 Y97.708 E1.10747
G1 X125.392 Y98.063 E1.15386
G1 X126.307 Y98.46 E1.20031
G1 X127.272 Y98.936 E1.25041
G1 X128.089 Y99.39 E1.29393
G1 X128.979 Y99.941 E1.34268
G1 X129.789 Y100.498 E1.38845
G1 X130.64 Y101.147 E1.43828
G1 X131.386 Y101.775 E1.48369
G1 X132.186 Y102.519 E1.53456
G1 X132.87 Y103.222 E1.58023
G1 X133.569 Y104.013 E1.62939
G1 X134.143 Y104.729 E1.67212
G1 X134.75 Y105.563 E1.72015
G1 X135.298 Y106.396 E1.76658
G1 X135.855 Y107.344 E1.81778
G1 X136.31 Y108.214 E1.86349
G1 X136.522 Y108.641 E1.88569
G1 X136.643 Y108.899 E1.89896
G1 X136.882 Y109.448 E1.92684
G1 X136.998 Y109.735 E1.94126
G1 X137.16 Y110.158 E1.96235
G1 X137.386 Y110.791 E1.99364
G1 X137.583 Y111.399 E2.0234
G1 X137.672 Y111.703 E2.03815
G1 X137.791 Y112.145 E2.05947
G1 X137.957 Y112.814 E2.09156
G1 X138.094 Y113.444 E2.12159
G1 X138.153 Y113.76 E2.13655
G1 X138.23 Y114.226 E2.15855
G1 X138.324 Y114.885 E2.18954
G1 X138.392 Y115.483 E2.21757
G1 X138.413 Y115.724 E2.22883
G1 X138.445 Y116.199 E2.251
G1 X138.473 Y116.84 E2.28088
G1 X138.48 Y117.587 E2.31566
G1 X138.459 Y118.453 E2.356
G1 X138.385 Y119.483 E2.40408
G1 X138.273 Y120.426 E2.4483
G1 X138.214 Y120.852 E2.46833
G1 X138.168 Y121.142 E2.482
G1 X138.063 Y121.71 E2.5089
G1 X137.997 Y122.02 E2.52366
G1 X137.876 Y122.526 E2.54788
G1 X137.749 Y123.009 E2.57114
G1 X137.556 Y123.663 E2.60289
G1 X137.291 Y124.465 E2.64222
G1 X136.937 Y125.392 E2.68842
G1 X136.54 Y126.307 E2.73487
G1 X136.064 Y127.272 E2.78497
G1 X135.61 Y128.089 E2.82849
G1 X135.055 Y128.984 E2.87753
G1 X134.498 Y129.793 E2.92327
G1 X133.858 Y130.634 E2.97248
G1 X133.23 Y131.381 E3.01792
G1 X132.481 Y132.186 E3.06912
G1 X131.776 Y132.872 E3.11492
G1 X130.985 Y133.571 E3.16408
G1 X130.269 Y134.145 E3.20681
G1 X129.432 Y134.754 E3.25501
G1 X128.606 Y135.297 E3.30103
G1 X127.664 Y135.851 E3.35192
G1 X126.789 Y136.309 E3.39791
G1 X126.359 Y136.522 E3.42025
G1 X126.101 Y136.643 E3.43352
G1 X125.552 Y136.882 E3.4614
G1 X125.265 Y136.998 E3.47582
G1 X124.828 Y137.164 E3.49758
G1 X124.184 Y137.393 E3.52941
G1 X123.597 Y137.584 E3.55815
G1 X123.304 Y137.67 E3.57237
G1 X122.855 Y137.791 E3.59403
G1 X122.186 Y137.957 E3.62612
G1 X121.556 Y138.094 E3.65614
G1 X121.24 Y138.153 E3.67111
G1 X120.772 Y138.23 E3.6932
G1 X120.112 Y138.324 E3.72424
G1 X119.52 Y138.392 E3.75199
G1 X119.28 Y138.413 E3.76321
G1 X118.8 Y138.445 E3.78561
G1 X118.158 Y138.473 E3.81553
G1 X117.407 Y138.48 E3.8505
G1 X116.517 Y138.458 E3.89195
G1 X115.469 Y138.381 E3.94089
G1 X114.551 Y138.27 E3.98394
G1 X114.148 Y138.214 E4.00289
G1 X113.858 Y138.168 E4.01656
G1 X113.274 Y138.059 E4.04422
G1 X112.957 Y137.991 E4.05932
G1 X112.46 Y137.873 E4.08311
G1 X111.982 Y137.747 E4.10612
G1 X111.339 Y137.556 E4.13736
G1 X110.539 Y137.292 E4.17659
G1 X109.608 Y136.937 E4.22298
G1 X108.693 Y136.54 E4.26943
G1 X107.728 Y136.064 E4.31953
G1 X106.911 Y135.61 E4.36305
G1 X106.021 Y135.059 E4.41179
G1 X105.211 Y134.502 E4.45757
G1 X104.36 Y133.853 E4.5074
G1 X103.614 Y133.225 E4.55281
G1 X102.814 Y132.481 E4.60368
G1 X102.128 Y131.776 E4.64948
G1 X101.429 Y130.985 E4.69864
G1 X100.855 Y130.269 E4.74137
G1 X100.247 Y129.432 E4.78954
G1 X99.7 Y128.6 E4.8359
G1 X99.141 Y127.651 E4.88719
G1 X98.687 Y126.782 E4.93284
G1 X98.471 Y126.344 E4.95558
G1 X98.35 Y126.085 E4.96889
G1 X98.132 Y125.587 E4.99421
G1 X98.014 Y125.298 E5.00874
G1 X97.827 Y124.807 E5.03321
G1 X97.6 Y124.165 E5.06492
G1 X97.42 Y123.61 E5.09208
G1 X97.333 Y123.315 E5.10641
G1 X97.207 Y122.848 E5.12893
G1 X97.042 Y122.182 E5.16088
G1 X96.906 Y121.556 E5.19071
G1 X96.847 Y121.24 E5.20568
G1 X96.77 Y120.772 E5.22776
G1 X96.676 Y120.112 E5.2588
G1 X96.608 Y119.52 E5.28655
G1 X96.587 Y119.28 E5.29777
G1 X96.555 Y118.801 E5.32012
G1 X96.527 Y118.16 E5.35
G1 X96.52 Y117.408 E5.38502
G1 X96.542 Y116.517 E5.42652
G1 X96.619 Y115.465 E5.47563
G1 X96.732 Y114.533 E5.51935
G1 X96.788 Y114.13 E5.5383
G1 X96.833 Y113.847 E5.55164
G1 X96.946 Y113.246 E5.58011
G1 X97.014 Y112.932 E5.59507
G1 X97.126 Y112.465 E5.61744
G1 X97.25 Y111.993 E5.64016
G1 X97.444 Y111.337 E5.67201
G1 X97.709 Y110.535 E5.71134
G1 X98.063 Y109.608 E5.75755
G1 X98.46 Y108.693 E5.80399
G1 X98.936 Y107.728 E5.8541
G1 X99.39 Y106.911 E5.89762
G1 X99.945 Y106.016 E5.94666
G1 X100.511 Y105.194 E5.99313
G1 X101.162 Y104.341 E6.04309
G1 X101.781 Y103.607 E6.0878
G1 X102.519 Y102.814 E6.13824
G0 F6000 X102.798 Y103.101
G1 F1200 X103.503 Y102.415 E6.18405
G1 X104.265 Y101.742 E6.23139
G1 X104.981 Y101.168 E6.27412
G1 X105.788 Y100.581 E6.32059
G1 X106.62 Y100.034 E6.36695
G1 X107.535 Y99.496 E6.41638
G1 X108.404 Y99.042 E6.46203
G1 X108.811 Y98.84 E6.48319
G1 X109.069 Y98.719 E6.49646
G1 X109.598 Y98.488 E6.52333
G1 X109.885 Y98.372 E6.53775
G1 X110.306 Y98.213 E6.5587
G1 X110.95 Y97.984 E6.59053
G1 X111.512 Y97.801 E6.61805
G1 X111.808 Y97.714 E6.63242
G1 X112.248 Y97.595 E6.65364
G1 X112.914 Y97.43 E6.68559
G1 X113.518 Y97.299 E6.71437
G1 X113.834 Y97.24 E6.72934
G1 X114.284 Y97.166 E6.75057
G1 X114.944 Y97.072 E6.78162
G1 X115.515 Y97.006 E6.80838
G1 X115.755 Y96.985 E6.8196
G1 X116.217 Y96.955 E6.84116
G1 X116.859 Y96.927 E6.87108
G1 X117.583 Y96.92 E6.90479
G1 X118.473 Y96.942 E6.94625
G1 X119.483 Y97.016 E6.99341
G1 X120.401 Y97.127 E7.03646
G1 X120.79 Y97.181 E7.05475
G1 X121.08 Y97.227 E7.06842
G1 X121.626 Y97.328 E7.09428
G1 X121.936 Y97.394 E7.10904
G1 X122.434 Y97.513 E7.13288
G1 X122.919 Y97.641 E7.15623
G1 X123.536 Y97.824 E7.1862
G1 X124.336 Y98.088 E7.22543
G1 X125.233 Y98.43 E7.27013
G1 X126.148 Y98.827 E7.31657
G1 X127.078 Y99.285 E7.36485
G1 X127.895 Y99.739 E7.40837
G1 X128.752 Y100.271 E7.45534
G1 X129.562 Y100.828 E7.50111
G1 X130.382 Y101.453 E7.54912
G1 X131.128 Y102.081 E7.59453
G1 X131.899 Y102.798 E7.64355
G1 X132.583 Y103.501 E7.68922
G1 X133.256 Y104.263 E7.73656
G1 X133.83 Y104.979 E7.77929
G1 X134.416 Y105.783 E7.82562
G1 X134.964 Y106.616 E7.87205
G1 X135.501 Y107.53 E7.92141
G1 X135.956 Y108.4 E7.96713
G1 X136.16 Y108.811 E7.98849
G1 X136.281 Y109.069 E8.00176
G1 X136.512 Y109.598 E8.02864
G1 X136.628 Y109.885 E8.04306
G1 X136.783 Y110.293 E8.06338
G1 X137.009 Y110.926 E8.09468
G1 X137.199 Y111.512 E8.12336
G1 X137.288 Y111.816 E8.13811
G1 X137.403 Y112.241 E8.15861
G1 X137.569 Y112.91 E8.19071
G1 X137.701 Y113.518 E8.21968
G1 X137.76 Y113.834 E8.23465
G1 X137.834 Y114.282 E8.25579
G1 X137.928 Y114.941 E8.28679
G1 X137.994 Y115.518 E8.31383
G1 X138.015 Y115.759 E8.32509
G1 X138.045 Y116.216 E8.34642
G1 X138.073 Y116.857 E8.3763
G1 X138.08 Y117.577 E8.40982
G1 X138.059 Y118.443 E8.45016
G1 X137.988 Y119.436 E8.49652
G1 X137.876 Y120.379 E8.54074
G1 X137.819 Y120.79 E8.56006
G1 X137.773 Y121.08 E8.57373
G1 X137.672 Y121.626 E8.59958
G1 X137.606 Y121.936 E8.61434
G1 X137.49 Y122.425 E8.63774
G1 X137.363 Y122.908 E8.661
G1 X137.176 Y123.538 E8.6916
G1 X136.911 Y124.34 E8.73093
G1 X136.57 Y125.233 E8.77544
G1 X136.173 Y126.148 E8.82188
G1 X135.715 Y127.078 E8.87016
G1 X135.261 Y127.895 E8.91368
G1 X134.726 Y128.757 E8.96092
G1 X134.169 Y129.566 E9.00665
G1 X133.552 Y130.376 E9.05407
G1 X132.924 Y131.123 E9.09951
G1 X132.202 Y131.899 E9.14886
G1 X131.497 Y132.585 E9.19467
G1 X130.735 Y133.258 E9.24201
G1 X130.019 Y133.832 E9.28474
G1 X129.212 Y134.419 E9.33121
G1 X128.386 Y134.962 E9.37723
G1 X127.479 Y135.496 E9.42624
G1 X126.604 Y135.954 E9.47223
G1 X126.189 Y136.16 E9.49381
G1 X125.931 Y136.281 E9.50707
G1 X125.402 Y136.512 E9.53395
G1 X125.115 Y136.628 E9.54837
G1 X124.694 Y136.787 E9.56932
G1 X124.05 Y137.016 E9.60115
G1 X123.484 Y137.2 E9.62886
G1 X123.191 Y137.286 E9.64308
G1 X122.759 Y137.403 E9.66392
G1 X122.09 Y137.569 E9.69602
G1 X121.482 Y137.701 E9.72499
G1 X121.166 Y137.76 E9.73996
G1 X120.716 Y137.834 E9.76119
G1 X120.056 Y137.928 E9.79223
G1 X119.485 Y137.994 E9.819
G1 X119.245 Y138.015 E9.83022
G1 X118.783 Y138.045 E9.85178
G1 X118.141 Y138.073 E9.8817
G1 X117.417 Y138.08 E9.91541
G1 X116.527 Y138.058 E9.95687
G1 X115.517 Y137.984 E10.00402
G1 X114.599 Y137.873 E10.04708
G1 X114.21 Y137.819 E10.06537
G1 X113.92 Y137.773 E10.07904
G1 X113.358 Y137.668 E10.10566
G1 X113.041 Y137.6 E10.12076
G1 X112.562 Y137.486 E10.14369
G1 X112.084 Y137.36 E10.1667
G1 X111.464 Y137.176 E10.19682
G1 X110.664 Y136.912 E10.23605
G1 X109.767 Y136.57 E10.28075
G1 X108.852 Y136.173 E10.32719
G1 X107.922 Y135.715 E10.37546
G1 X107.105 Y135.261 E10.41898
G1 X106.248 Y134.729 E10.46595
G1 X105.438 Y134.172 E10.51173
G1 X104.618 Y133.547 E10.55974
G1 X103.872 Y132.919 E10.60514
G1 X103.101 Y132.202 E10.65417
G1 X102.415 Y131.497 E10.69997
G1 X101.742 Y130.735 E10.74731
G1 X101.168 Y130.019 E10.79004
G1 X100.581 Y129.212 E10.83651
G1 X100.034 Y128.38 E10.88287
G1 X99.496 Y127.465 E10.9323
G1 X99.042 Y126.596 E10.97795
G1 X98.833 Y126.175 E10.99984
G1 X98.712 Y125.916 E11.01315
G1 X98.502 Y125.436 E11.03755
G1 X98.384 Y125.147 E11.05208
G1 X98.204 Y124.674 E11.07565
G1 X97.977 Y124.032 E11.10736
G1 X97.804 Y123.496 E11.13358
G1 X97.717 Y123.201 E11.1479
G1 X97.595 Y122.752 E11.16957
G1 X97.43 Y122.086 E11.20152
G1 X97.299 Y121.482 E11.2303
G1 X97.24 Y121.166 E11.24527
G1 X97.166 Y120.716 E11.2665
G1 X97.072 Y120.056 E11.29754
G1 X97.006 Y119.485 E11.32431
G1 X96.985 Y119.245 E11.33553
G1 X96.955 Y118.784 E11.35704
G1 X96.927 Y118.143 E11.38691
G1 X96.92 Y117.418 E11.42067
G1 X96.942 Y116.527 E11.46218
G1 X97.016 Y115.513 E11.50952
G1 X97.129 Y114.581 E11.55323
G1 X97.229 Y113.909 E11.58487
G1 X97.337 Y113.33 E11.61229
G1 X97.405 Y113.016 E11.62725
G1 X97.513 Y112.567 E11.64876
G1 X97.637 Y112.095 E11.67148
G1 X97.824 Y111.462 E11.70222
G1 X98.089 Y110.66 E11.74155
G1 X98.43 Y109.767 E11.78606
G1 X98.827 Y108.852 E11.8325
G1 X99.285 Y107.922 E11.88077
G1 X99.739 Y107.105 E11.92429
G1 X100.274 Y106.242 E11.97158
G1 X100.84 Y105.42 E12.01805
G1 X101.468 Y104.598 E12.06621
G1 X102.087 Y103.864 E12.11092
G1 X102.798 Y103.101 E12.15949
G0 F6000 X103.077 Y103.388
G1 F1200 X103.782 Y102.702 E12.20529
G1 X104.515 Y102.054 E12.25085
G1 X105.231 Y101.48 E12.29358
G1 X106.008 Y100.915 E12.33831
G1 X106.84 Y100.368 E12.38468
G1 X107.72 Y99.85 E12.43223
G1 X108.589 Y99.396 E12.47788
G1 X108.981 Y99.202 E12.49825
G1 X109.239 Y99.081 E12.51152
G1 X109.748 Y98.859 E12.53737
G1 X110.035 Y98.743 E12.55179
G1 X110.44 Y98.59 E12.57195
G1 X111.084 Y98.361 E12.60377
G1 X111.625 Y98.185 E12.63026
G1 X111.921 Y98.098 E12.64463
G1 X112.344 Y97.983 E12.66504
G1 X113.01 Y97.818 E12.69699
G1 X113.591 Y97.692 E12.72467
G1 X113.907 Y97.633 E12.73964
G1 X114.341 Y97.562 E12.76012
G1 X115.001 Y97.468 E12.79116
G1 X115.55 Y97.405 E12.81689
G1 X115.79 Y97.384 E12.82811
G1 X116.235 Y97.355 E12.84888
G1 X116.877 Y97.327 E12.8788
G1 X117.573 Y97.32 E12.91121
G1 X118.463 Y97.342 E12.95266
G1 X119.435 Y97.413 E12.99805
G1 X120.353 Y97.524 E13.0411
G1 X120.727 Y97.576 E13.05868
G1 X121.017 Y97.622 E13.07236
G1 X121.543 Y97.72 E13.09727
G1 X121.853 Y97.786 E13.11203
G1 X122.332 Y97.9 E13.13496
G1 X122.817 Y98.028 E13.15831
G1 X123.41 Y98.204 E13.18712
G1 X124.21 Y98.468 E13.22634
G1 X125.074 Y98.797 E13.26939
G1 X125.989 Y99.194 E13.31584
G1 X126.883 Y99.635 E13.36226
G1 X127.7 Y100.089 E13.40578
G1 X128.525 Y100.6 E13.45096
G1 X129.335 Y101.157 E13.49674
G1 X130.125 Y101.759 E13.54299
G1 X130.871 Y102.387 E13.58839
G1 X131.613 Y103.077 E13.63558
G1 X132.297 Y103.78 E13.68125
G1 X132.944 Y104.513 E13.72677
G1 X133.518 Y105.229 E13.7695
G1 X134.081 Y106.003 E13.81407
G1 X134.629 Y106.836 E13.8605
G1 X135.147 Y107.715 E13.90801
G1 X135.602 Y108.585 E13.95373
G1 X135.798 Y108.981 E13.9743
G1 X135.919 Y109.239 E13.98757
G1 X136.141 Y109.748 E14.01343
G1 X136.257 Y110.035 E14.02784
G1 X136.406 Y110.427 E14.04737
G1 X136.632 Y111.06 E14.07866
G1 X136.815 Y111.624 E14.10627
G1 X136.904 Y111.928 E14.12102
G1 X137.015 Y112.338 E14.1408
G1 X137.181 Y113.007 E14.1729
G1 X137.308 Y113.591 E14.20073
G1 X137.367 Y113.907 E14.2157
G1 X137.438 Y114.339 E14.23608
G1 X137.532 Y114.998 E14.26708
G1 X137.595 Y115.553 E14.29309
G1 X137.616 Y115.794 E14.30435
G1 X137.645 Y116.234 E14.32489
G1 X137.673 Y116.875 E14.35476
G1 X137.68 Y117.567 E14.38699
G1 X137.659 Y118.433 E14.42732
G1 X137.591 Y119.389 E14.47195
G1 X137.479 Y120.332 E14.51617
G1 X137.424 Y120.727 E14.53474
G1 X137.378 Y121.017 E14.54841
G1 X137.28 Y121.543 E14.57333
G1 X137.214 Y121.853 E14.58808
G1 X137.103 Y122.323 E14.61057
G1 X136.976 Y122.806 E14.63383
G1 X136.796 Y123.412 E14.66326
G1 X136.531 Y124.214 E14.70259
G1 X136.203 Y125.074 E14.74545
G1 X135.806 Y125.989 E14.7919
G1 X135.365 Y126.883 E14.83831
G1 X134.911 Y127.7 E14.88184
G1 X134.396 Y128.53 E14.92732
G1 X133.839 Y129.339 E14.97305
G1 X133.246 Y130.119 E15.01868
G1 X132.618 Y130.866 E15.06412
G1 X131.923 Y131.612 E15.1116
G1 X131.218 Y132.298 E15.1574
G1 X130.485 Y132.946 E15.20296
G1 X129.769 Y133.52 E15.24569
G1 X128.992 Y134.085 E15.29042
G1 X128.166 Y134.628 E15.33645
G1 X127.293 Y135.142 E15.38362
G1 X126.418 Y135.6 E15.42961
G1 X126.019 Y135.798 E15.45035
G1 X125.761 Y135.919 E15.46362
G1 X125.252 Y136.141 E15.48948
G1 X124.965 Y136.257 E15.50389
G1 X124.56 Y136.41 E15.52405
G1 X123.916 Y136.639 E15.55588
G1 X123.372 Y136.816 E15.58252
G1 X123.079 Y136.902 E15.59674
G1 X122.662 Y137.015 E15.61685
G1 X121.993 Y137.181 E15.64895
G1 X121.409 Y137.308 E15.67678
G1 X121.093 Y137.367 E15.69175
G1 X120.659 Y137.438 E15.71223
G1 X119.999 Y137.532 E15.74327
G1 X119.45 Y137.595 E15.769
G1 X119.21 Y137.616 E15.78022
G1 X118.765 Y137.645 E15.80098
G1 X118.123 Y137.673 E15.83091
G1 X117.427 Y137.68 E15.86332
G1 X116.537 Y137.658 E15.90477
G1 X115.565 Y137.587 E15.95015
G1 X114.647 Y137.476 E15.99321
G1 X114.273 Y137.424 E16.01079
G1 X113.983 Y137.378 E16.02446
G1 X113.442 Y137.277 E16.05009
G1 X113.125 Y137.209 E16.06519
G1 X112.664 Y137.099 E16.08726
G1 X112.186 Y136.973 E16.11027
G1 X111.59 Y136.796 E16.13922
G1 X110.79 Y136.532 E16.17845
G1 X109.926 Y136.203 E16.2215
G1 X109.011 Y135.806 E16.26794
G1 X108.117 Y135.365 E16.31436
G1 X107.3 Y134.911 E16.35788
G1 X106.475 Y134.4 E16.40307
G1 X105.665 Y133.843 E16.44885
G1 X104.875 Y133.241 E16.49509
G1 X104.129 Y132.613 E16.5405
G1 X103.388 Y131.923 E16.58765
G1 X102.702 Y131.218 E16.63345
G1 X102.054 Y130.485 E16.67901
