;FLAVOR:Marlin
;TIME:1495
;Filament used: 1.00843m
;Layer height: 0.2
;MINX:96.523
;MINY:96.523
;MINZ:0.2
;MAXX:138.477
;MAXY:138.477
;MAXZ:20
;Generated with Cura_SteamEngine 4.6.0
M140 S60
M105
M190 S60
M104 S200
M105
M109 S200
M82 ;absolute extrusion mode
; Ender 3 Custom Start G-code
G92 E0 ; Reset Extruder
G28 ; Home all axes
G1 Z2.0 F3000 ; Move Z Axis up little to prevent scratching of Heat Bed
G1 X0.1 Y20 Z0.3 F5000.0 ; Move to start position
G1 X0.1 Y200.0 Z0.3 F1500.0 E15 ; Draw the first line
G1 X0.4 Y200.0 Z0.3 F5000.0 ; Move to side a little
G1 X0.4 Y20 Z0.3 F1500.0 E30 ; Draw the second line
G92 E0 ; Reset Extruder
G1 Z2.0 F3000 ; Move Z Axis up little to prevent scratching of Heat Bed
G1 X5 Y20 Z0.3 F5000.0 ; Move over to prevent blob squish
G92 E0
G92 E0
G1 F1500 E-5
;LAYER_COUNT:100
;LAYER:0
M107
G0 F6000 X119.412 Y97.411 Z0.2
;TYPE:SKIRT
G1 F1500 E0
G1 F1200 X120.338 Y97.526 E0.03104
G1 X121.314 Y97.693 E0.06397
G1 X121.658 Y97.758 E0.07561
G1 X122.113 Y97.852 E0.09107
G1 X122.957 Y98.064 E0.12001
G1 X123.518 Y98.236 E0.13953
G1 X124.032 Y98.407 E0.15754
G1 X124.607 Y98.608 E0.1778
G1 X125.459 Y98.95 E0.20834
G1 X126.191 Y99.287 E0.23514
G1 X126.367 Y99.374 E0.24167
G1 X127.002 Y99.694 E0.26532
G1 X127.919 Y100.217 E0.30043
G1 X128.854 Y100.822 E0.33747
G1 X129.25 Y101.091 E0.3534
G1 X129.924 Y101.59 E0.38129
G1 X130.375 Y101.959 E0.40067
G1 X130.737 Y102.271 E0.41656
G1 X131.257 Y102.732 E0.43968
G1 X131.685 Y103.132 E0.45916
G1 X132.113 Y103.575 E0.47965
G1 X132.531 Y104.038 E0.5004
G1 X133.029 Y104.608 E0.52557
G1 X133.604 Y105.33 E0.55627
G1 X134.168 Y106.127 E0.58874
G1 X134.557 Y106.711 E0.61208
G1 X135.011 Y107.46 E0.64121
G1 X135.237 Y107.872 E0.65684
G1 X135.507 Y108.396 E0.67645
G1 X135.815 Y109.024 E0.69971
G1 X136.058 Y109.557 E0.7192
G1 X136.314 Y110.192 E0.74197
G1 X136.546 Y110.838 E0.7648
G1 X136.76 Y111.477 E0.78721
G1 X136.896 Y111.914 E0.80243
G1 X136.906 Y111.949 E0.80364
G1 X137.039 Y112.467 E0.82143
G1 X137.243 Y113.355 E0.85174
G1 X137.301 Y113.671 E0.86242
G1 X137.309 Y113.669 E0.8627
G1 X137.397 Y114.116 E0.87785
G1 X137.533 Y115.02 E0.90825
G1 X137.58 Y115.494 E0.9241
G1 X137.63 Y116.141 E0.94568
G1 X137.668 Y116.814 E0.9681
G1 X137.677 Y117.754 E0.99937
G1 X137.649 Y118.535 E1.02536
G1 X137.626 Y118.947 E1.03908
G1 X137.585 Y119.484 E1.057
G1 X137.504 Y120.211 E1.08133
G1 X137.48 Y120.372 E1.08674
G1 X137.427 Y120.691 E1.09749
G1 X137.287 Y121.442 E1.1229
G1 X137.143 Y122.132 E1.14635
G1 X136.948 Y122.912 E1.17309
G1 X136.869 Y123.182 E1.18245
G1 X136.761 Y123.527 E1.19447
G1 X136.589 Y124.041 E1.2125
G1 X136.388 Y124.614 E1.23269
G1 X136.061 Y125.432 E1.26199
G1 X135.713 Y126.191 E1.28977
G1 X135.626 Y126.367 E1.2963
G1 X135.306 Y127.002 E1.31995
G1 X134.785 Y127.915 E1.35491
G1 X134.176 Y128.858 E1.39224
G1 X133.906 Y129.255 E1.40821
G1 X133.322 Y130.032 E1.44054
G1 X132.947 Y130.484 E1.46008
G1 X132.728 Y130.739 E1.47126
G1 X132.265 Y131.261 E1.49446
G1 X131.87 Y131.682 E1.51366
G1 X131.435 Y132.103 E1.5338
G1 X131.099 Y132.41 E1.54894
G1 X130.964 Y132.53 E1.55494
G1 X130.389 Y133.032 E1.58033
G1 X129.67 Y133.604 E1.61089
G1 X128.873 Y134.168 E1.64336
G1 X128.289 Y134.557 E1.6667
G1 X127.54 Y135.011 E1.69583
G1 X127.128 Y135.237 E1.71146
G1 X126.596 Y135.511 E1.73137
G1 X125.976 Y135.815 E1.75433
G1 X125.296 Y136.118 E1.77909
G1 X124.941 Y136.261 E1.79182
G1 X124.531 Y136.416 E1.8064
G1 X124.102 Y136.566 E1.82152
G1 X123.519 Y136.761 E1.84196
G1 X123.086 Y136.896 E1.85705
G1 X123.051 Y136.906 E1.85826
G1 X122.533 Y137.039 E1.87605
G1 X121.645 Y137.243 E1.90635
G1 X121.317 Y137.303 E1.91744
G1 X121.319 Y137.311 E1.91772
G1 X120.869 Y137.399 E1.93297
G1 X119.996 Y137.531 E1.96233
G1 X119.489 Y137.582 E1.97928
G1 X118.787 Y137.635 E2.0027
G1 X118.17 Y137.669 E2.02325
G1 X117.243 Y137.677 E2.05408
G1 X116.464 Y137.649 E2.08001
G1 X116.052 Y137.626 E2.09373
G1 X115.503 Y137.584 E2.11205
G1 X114.687 Y137.489 E2.13937
G1 X114.311 Y137.427 E2.15204
G1 X113.554 Y137.286 E2.17766
G1 X112.865 Y137.142 E2.20107
G1 X112.088 Y136.948 E2.2277
G1 X111.818 Y136.869 E2.23706
G1 X111.473 Y136.761 E2.24908
G1 X110.969 Y136.593 E2.26675
G1 X110.394 Y136.392 E2.28701
G1 X109.55 Y136.054 E2.31725
G1 X108.809 Y135.713 E2.34438
G1 X108.633 Y135.626 E2.35091
G1 X107.998 Y135.306 E2.37456
G1 X107.081 Y134.783 E2.40967
G1 X106.165 Y134.192 E2.44593
G1 X105.767 Y133.923 E2.46191
G1 X105.041 Y133.383 E2.492
G1 X104.625 Y133.041 E2.50991
G1 X104.261 Y132.728 E2.52588
G1 X103.739 Y132.265 E2.54909
G1 X103.437 Y131.986 E2.56276
G1 X103.411 Y131.961 E2.56396
G1 X102.955 Y131.497 E2.5856
G1 X102.435 Y130.926 E2.61129
G1 X101.935 Y130.35 E2.63666
G1 X101.398 Y129.675 E2.66535
G1 X101.058 Y129.204 E2.68467
G1 X100.825 Y128.863 E2.6984
G1 X100.425 Y128.263 E2.72239
G1 X99.977 Y127.525 E2.7511
G1 X99.705 Y127.021 E2.77015
G1 X99.47 Y126.558 E2.78742
G1 X99.188 Y125.983 E2.80872
G1 X99.201 Y125.976 E2.80921
G1 X98.932 Y125.422 E2.82969
G1 X98.851 Y125.228 E2.83669
G1 X98.692 Y124.821 E2.85122
G1 X98.454 Y124.162 E2.87452
G1 X98.24 Y123.523 E2.89694
G1 X98.104 Y123.086 E2.91216
G1 X98.094 Y123.051 E2.91337
G1 X97.96 Y122.528 E2.93133
G1 X97.756 Y121.638 E2.9617
G1 X97.698 Y121.323 E2.97235
G1 X97.69 Y121.325 E2.97262
G1 X97.602 Y120.877 E2.98781
G1 X97.469 Y119.996 E3.01744
G1 X97.416 Y119.467 E3.03513
G1 X97.383 Y119.047 E3.04914
G1 X97.385 Y119.047 E3.0492
G1 X97.366 Y118.788 E3.05784
G1 X97.332 Y118.172 E3.07836
G1 X97.323 Y117.244 E3.10923
G1 X97.351 Y116.464 E3.13519
G1 X97.374 Y116.043 E3.14921
G1 X97.417 Y115.487 E3.16776
G1 X97.513 Y114.677 E3.19489
G1 X97.577 Y114.291 E3.2079
G1 X97.713 Y113.558 E3.2327
G1 X97.858 Y112.863 E3.25631
G1 X97.87 Y112.865 E3.25672
G1 X98.069 Y112.025 E3.28543
G1 X98.149 Y111.757 E3.29473
G1 X98.41 Y110.96 E3.32262
G1 X98.605 Y110.401 E3.34232
G1 X98.95 Y109.542 E3.3731
G1 X99.311 Y108.76 E3.40175
G1 X99.696 Y107.995 E3.43024
G1 X100.22 Y107.077 E3.46539
G1 X100.811 Y106.161 E3.50165
G1 X101.081 Y105.762 E3.51767
G1 X101.427 Y105.282 E3.53735
G1 X101.802 Y104.812 E3.55735
G1 X102.27 Y104.262 E3.58137
G1 X102.732 Y103.741 E3.60453
G1 X103.3 Y103.15 E3.63179
G1 X103.853 Y102.634 E3.65695
G1 X104.072 Y102.437 E3.66675
G1 X104.641 Y101.943 E3.69181
G1 X104.956 Y101.68 E3.70546
G1 X104.966 Y101.672 E3.70589
G1 X105.316 Y101.404 E3.72055
G1 X105.796 Y101.058 E3.74023
G1 X106.147 Y100.818 E3.75437
G1 X106.717 Y100.439 E3.77714
G1 X107.445 Y99.998 E3.80545
G1 X107.85 Y99.775 E3.82082
G1 X108.404 Y99.489 E3.84156
G1 X109.024 Y99.185 E3.86453
G1 X109.557 Y98.942 E3.88401
G1 X110.18 Y98.69 E3.90636
G1 X110.898 Y98.434 E3.93171
G1 X111.481 Y98.239 E3.95216
G1 X111.914 Y98.104 E3.96725
G1 X111.949 Y98.094 E3.96846
G1 X112.467 Y97.961 E3.98625
G1 X113.355 Y97.757 E4.01655
G1 X113.683 Y97.697 E4.02764
G1 X113.681 Y97.689 E4.02791
G1 X114.131 Y97.601 E4.04316
G1 X115.004 Y97.469 E4.07253
G1 X115.511 Y97.418 E4.08948
G1 X116.213 Y97.365 E4.11289
G1 X116.83 Y97.331 E4.13345
G1 X117.764 Y97.323 E4.16451
G1 X118.53 Y97.351 E4.19001
G1 X119.412 Y97.411 E4.21941
G0 F6000 X104.716 Y101.36
G1 F1200 X105.08 Y101.081 E4.23466
G1 X105.322 Y100.904 E4.24464
G1 X105.926 Y100.485 E4.26909
G1 X106.496 Y100.106 E4.29185
G1 X107.252 Y99.648 E4.32125
G1 X107.657 Y99.425 E4.33663
G1 X108.228 Y99.13 E4.358
G1 X108.848 Y98.826 E4.38097
G1 X109.402 Y98.574 E4.40121
G1 X110.035 Y98.317 E4.42394
G1 X110.771 Y98.054 E4.44993
G1 X111.354 Y97.859 E4.47038
G1 X111.804 Y97.72 E4.48604
G1 X111.839 Y97.71 E4.48725
G1 X112.378 Y97.571 E4.50577
G1 X113.266 Y97.367 E4.53607
G1 X113.607 Y97.304 E4.54761
G1 X113.605 Y97.296 E4.54788
G1 X114.055 Y97.208 E4.56313
G1 X114.961 Y97.071 E4.59361
G1 X115.479 Y97.019 E4.61092
G1 X116.191 Y96.966 E4.63467
G1 X116.808 Y96.932 E4.65522
G1 X117.778 Y96.923 E4.68749
G1 X118.544 Y96.951 E4.71298
G1 X118.982 Y96.976 E4.72757
G1 X119.443 Y97.012 E4.74295
G1 X120.406 Y97.132 E4.77523
G1 X121.382 Y97.299 E4.80816
G1 X121.739 Y97.366 E4.82024
G1 X122.194 Y97.46 E4.8357
G1 X123.071 Y97.681 E4.86578
G1 X123.644 Y97.856 E4.8857
G1 X124.164 Y98.03 E4.90394
G1 X124.739 Y98.231 E4.9242
G1 X125.624 Y98.586 E4.95592
G1 X126.364 Y98.927 E4.98302
G1 X126.547 Y99.017 E4.9898
G1 X127.182 Y99.337 E5.01345
G1 X128.135 Y99.88 E5.04993
G1 X129.079 Y100.491 E5.08733
G1 X129.475 Y100.76 E5.10325
G1 X130.175 Y101.278 E5.13222
G1 X130.635 Y101.655 E5.152
G1 X131.003 Y101.971 E5.16813
G1 X131.523 Y102.432 E5.19125
G1 X131.964 Y102.846 E5.21136
G1 X132.409 Y103.306 E5.23265
G1 X132.833 Y103.775 E5.25368
G1 X133.331 Y104.345 E5.27885
G1 X133.928 Y105.095 E5.31074
G1 X134.501 Y105.906 E5.34376
G1 X134.89 Y106.49 E5.3671
G1 X135.362 Y107.268 E5.39737
G1 X135.588 Y107.68 E5.413
G1 X135.866 Y108.219 E5.43317
G1 X136.174 Y108.847 E5.45643
G1 X136.426 Y109.402 E5.47671
G1 X136.687 Y110.048 E5.49988
G1 X136.925 Y110.711 E5.52331
G1 X137.139 Y111.35 E5.54572
G1 X137.28 Y111.804 E5.56153
G1 X137.29 Y111.839 E5.56275
G1 X137.429 Y112.378 E5.58126
G1 X137.633 Y113.266 E5.61156
G1 X137.693 Y113.593 E5.62262
G1 X137.701 Y113.591 E5.6229
G1 X137.789 Y114.038 E5.63805
G1 X137.931 Y114.979 E5.6697
G1 X137.979 Y115.462 E5.68584
G1 X138.029 Y116.118 E5.70773
G1 X138.067 Y116.791 E5.73015
G1 X138.077 Y117.769 E5.76268
G1 X138.049 Y118.55 E5.78867
G1 X138.025 Y118.977 E5.80289
G1 X137.984 Y119.514 E5.82081
G1 X137.899 Y120.27 E5.84611
G1 X137.875 Y120.431 E5.85152
G1 X137.82 Y120.762 E5.86268
G1 X137.678 Y121.524 E5.88846
G1 X137.534 Y122.214 E5.91191
G1 X137.331 Y123.025 E5.93971
G1 X137.252 Y123.295 E5.94907
G1 X137.141 Y123.653 E5.96154
G1 X136.966 Y124.174 E5.97982
G1 X136.765 Y124.747 E6.00001
G1 X136.426 Y125.596 E6.03042
G1 X136.073 Y126.364 E6.05853
G1 X135.983 Y126.547 E6.06531
G1 X135.663 Y127.182 E6.08897
G1 X135.122 Y128.131 E6.1253
G1 X134.507 Y129.083 E6.16299
G1 X134.237 Y129.48 E6.17896
G1 X133.63 Y130.287 E6.21255
G1 X133.255 Y130.739 E6.23208
G1 X133.027 Y131.005 E6.24373
G1 X132.564 Y131.527 E6.26694
G1 X132.157 Y131.961 E6.28673
G1 X131.705 Y132.399 E6.30767
G1 X131.367 Y132.707 E6.32287
G1 X131.227 Y132.831 E6.32909
G1 X130.652 Y133.333 E6.35448
G1 X129.905 Y133.928 E6.38625
G1 X129.094 Y134.501 E6.41927
G1 X128.51 Y134.89 E6.44261
G1 X127.732 Y135.362 E6.47288
G1 X127.32 Y135.588 E6.48851
G1 X126.772 Y135.87 E6.50901
G1 X126.152 Y136.174 E6.53197
G1 X125.446 Y136.489 E6.55769
G1 X125.091 Y136.632 E6.57041
G1 X124.664 Y136.794 E6.5856
G1 X124.229 Y136.946 E6.60093
G1 X123.646 Y137.141 E6.62138
G1 X123.196 Y137.28 E6.63704
G1 X123.161 Y137.29 E6.63825
G1 X122.622 Y137.429 E6.65677
G1 X121.734 Y137.633 E6.68707
G1 X121.393 Y137.696 E6.6986
G1 X121.395 Y137.704 E6.69888
G1 X120.945 Y137.792 E6.71413
G1 X120.039 Y137.929 E6.74461
G1 X119.521 Y137.981 E6.76192
G1 X118.809 Y138.034 E6.78567
G1 X118.192 Y138.068 E6.80622
G1 X117.228 Y138.077 E6.83828
G1 X116.449 Y138.049 E6.86421
G1 X116.021 Y138.025 E6.87847
G1 X115.472 Y137.983 E6.89678
G1 X114.624 Y137.884 E6.92518
G1 X114.24 Y137.82 E6.93813
G1 X113.472 Y137.678 E6.9641
G1 X112.783 Y137.534 E6.98751
G1 X111.975 Y137.331 E7.01522
G1 X111.705 Y137.252 E7.02458
G1 X111.347 Y137.141 E7.03705
G1 X110.837 Y136.97 E7.05494
G1 X110.262 Y136.769 E7.0752
G1 X109.385 Y136.418 E7.10662
G1 X108.636 Y136.073 E7.13404
G1 X108.453 Y135.983 E7.14083
G1 X107.818 Y135.663 E7.16448
G1 X106.865 Y135.12 E7.20096
G1 X105.941 Y134.523 E7.23755
G1 X105.543 Y134.254 E7.25352
G1 X104.788 Y133.693 E7.28481
G1 X104.365 Y133.345 E7.30303
G1 X103.995 Y133.027 E7.31925
G1 X103.473 Y132.564 E7.34246
G1 X103.16 Y132.275 E7.35663
G1 X103.134 Y132.25 E7.35783
G1 X102.665 Y131.773 E7.38008
G1 X102.133 Y131.189 E7.40635
G1 X101.633 Y130.613 E7.43172
G1 X101.075 Y129.911 E7.46155
G1 X100.729 Y129.43 E7.48126
G1 X100.492 Y129.085 E7.49518
G1 X100.092 Y128.485 E7.51916
G1 X99.627 Y127.718 E7.54899
G1 X99.349 Y127.203 E7.56846
G1 X99.111 Y126.734 E7.58595
G1 X98.829 Y126.159 E7.60725
G1 X98.833 Y126.157 E7.6074
G1 X98.761 Y126.02 E7.61255
G1 X98.563 Y125.576 E7.62872
G1 X98.482 Y125.382 E7.63571
G1 X98.316 Y124.959 E7.65082
G1 X98.178 Y124.584 E7.66411
G1 X98.075 Y124.289 E7.67451
G1 X97.861 Y123.65 E7.69692
G1 X97.72 Y123.196 E7.71273
G1 X97.71 Y123.161 E7.71394
G1 X97.57 Y122.617 E7.73263
G1 X97.366 Y121.727 E7.763
G1 X97.306 Y121.4 E7.77405
G1 X97.298 Y121.402 E7.77433
G1 X97.21 Y120.954 E7.78951
G1 X97.071 Y120.039 E7.82029
G1 X97.018 Y119.498 E7.83837
G1 X96.985 Y119.078 E7.85239
G1 X96.986 Y119.078 E7.85242
G1 X96.966 Y118.81 E7.86136
G1 X96.932 Y118.194 E7.88188
G1 X96.923 Y117.23 E7.91394
G1 X96.951 Y116.45 E7.9399
G1 X96.976 Y116.013 E7.95446
G1 X97.019 Y115.457 E7.97301
G1 X97.118 Y114.614 E8.00124
G1 X97.183 Y114.22 E8.01452
G1 X97.321 Y113.476 E8.03969
G1 X97.466 Y112.781 E8.0633
G1 X97.48 Y112.784 E8.06378
G1 X97.686 Y111.911 E8.09361
G1 X97.864 Y111.331 E8.11379
G1 X98.032 Y110.829 E8.1314
G1 X98.227 Y110.27 E8.15109
G1 X98.585 Y109.376 E8.18312
G1 X98.951 Y108.586 E8.21208
G1 X99.339 Y107.815 E8.24078
G1 X99.883 Y106.861 E8.27731
G1 X100.48 Y105.936 E8.31393
G1 X100.75 Y105.537 E8.32995
G1 X101.109 Y105.039 E8.35037
G1 X101.122 Y105.022 E8.35108
G1 X101.652 Y104.367 E8.37911
G1 X101.971 Y103.996 E8.39538
G1 X102.433 Y103.475 E8.41854
G1 X103.023 Y102.861 E8.44686
G1 X103.583 Y102.338 E8.47235
G1 X103.81 Y102.135 E8.48248
G1 X104.379 Y101.641 E8.50754
G1 X104.716 Y101.36 E8.52213
G0 F6000 X104.466 Y101.047
G1 F1200 X104.844 Y100.758 E8.53796
G1 X105.343 Y100.399 E8.5584
G1 X105.704 Y100.152 E8.57295
G1 X106.274 Y99.773 E8.59572
G1 X107.059 Y99.297 E8.62625
G1 X107.464 Y99.074 E8.64163
G1 X108.052 Y98.77 E8.66365
G1 X108.672 Y98.466 E8.68661
G1 X109.246 Y98.205 E8.70759
G1 X109.889 Y97.945 E8.73065
G1 X110.644 Y97.675 E8.75732
G1 X111.227 Y97.48 E8.77777
G1 X111.694 Y97.335 E8.79403
G1 X111.729 Y97.325 E8.79524
G1 X112.288 Y97.181 E8.81444
G1 X113.176 Y96.977 E8.84475
G1 X113.53 Y96.911 E8.85672
G1 X113.528 Y96.903 E8.857
G1 X113.978 Y96.815 E8.87225
G1 X114.919 Y96.673 E8.9039
G1 X115.447 Y96.621 E8.92155
G1 X116.169 Y96.567 E8.94563
G1 X116.786 Y96.533 E8.96618
G1 X117.793 Y96.523 E8.99968
G1 X118.559 Y96.551 E9.02517
G1 X119.013 Y96.577 E9.0403
G1 X119.474 Y96.613 E9.05567
G1 X120.473 Y96.738 E9.08916
G1 X121.449 Y96.905 E9.12209
G1 X121.82 Y96.974 E9.13465
G1 X122.275 Y97.068 E9.1501
G1 X123.185 Y97.297 E9.18131
G1 X123.454 Y97.377 E9.19064
G1 X124.296 Y97.652 E9.2201
G1 X124.871 Y97.853 E9.24036
G1 X125.789 Y98.221 E9.27326
G1 X126.537 Y98.566 E9.30066
G1 X126.727 Y98.66 E9.30771
G1 X127.362 Y98.98 E9.33136
G1 X128.35 Y99.544 E9.36919
G1 X129.304 Y100.16 E9.40696
G1 X129.7 Y100.429 E9.42289
G1 X130.426 Y100.967 E9.45294
G1 X130.895 Y101.351 E9.4731
G1 X131.268 Y101.672 E9.48947
G1 X131.788 Y102.133 E9.51258
G1 X132.243 Y102.559 E9.53331
G1 X132.705 Y103.037 E9.55542
G1 X133.134 Y103.512 E9.57671
G1 X133.632 Y104.082 E9.60189
G1 X134.252 Y104.86 E9.63498
G1 X134.834 Y105.684 E9.66853
G1 X135.223 Y106.268 E9.69187
G1 X135.712 Y107.076 E9.72328
G1 X135.938 Y107.488 E9.73891
G1 X136.225 Y108.043 E9.75969
G1 X136.533 Y108.671 E9.78295
G1 X136.795 Y109.246 E9.80397
G1 X137.06 Y109.903 E9.82753
G1 X137.305 Y110.584 E9.85161
G1 X137.519 Y111.223 E9.87402
G1 X137.665 Y111.694 E9.89042
G1 X137.675 Y111.729 E9.89163
G1 X137.819 Y112.288 E9.91083
G1 X138.023 Y113.176 E9.94113
G1 X138.086 Y113.516 E9.95263
G1 X138.094 Y113.514 E9.95291
G1 X138.182 Y113.961 E9.96806
G1 X138.329 Y114.937 E10.00089
G1 X138.378 Y115.429 E10.01733
G1 X138.429 Y116.096 E10.03958
G1 X138.467 Y116.769 E10.062
G1 X138.477 Y117.783 E10.09573
G1 X138.449 Y118.564 E10.12172
G1 X138.424 Y119.007 E10.13648
G1 X138.383 Y119.544 E10.15439
G1 X138.295 Y120.329 E10.18067
G1 X138.271 Y120.49 E10.18608
G1 X138.214 Y120.834 E10.19768
G1 X138.07 Y121.605 E10.22377
G1 X137.926 Y122.295 E10.24721
G1 X137.715 Y123.137 E10.27608
G1 X137.636 Y123.407 E10.28544
G1 X137.521 Y123.778 E10.29836
G1 X137.344 Y124.306 E10.31688
G1 X137.143 Y124.879 E10.33707
G1 X136.79 Y125.761 E10.36867
G1 X136.434 Y126.537 E10.39707
G1 X136.34 Y126.727 E10.40412
G1 X136.02 Y127.362 E10.42777
G1 X135.458 Y128.347 E10.46549
