;FLAVOR:Marlin
;TIME:1582
;Filament used: 1.03096m
;Layer height: 0.2
;MINX:96.497
;MINY:98.817
;MINZ:0.2
;MAXX:138.503
;MAXY:136.184
;MAXZ:19
;Generated with Cura_SteamEngine 4.6.0
M140 S60
M105
M190 S60
M104 S200
M105
M109 S200
M82 ;absolute extrusion mode
; Ender 3 Custom Start G-code
G92 E0 ; Reset Extruder
G28 ; Home all axes
G1 Z2.0 F3000 ; Move Z Axis up little to prevent scratching of Heat Bed
G1 X0.1 Y20 Z0.3 F5000.0 ; Move to start position
G1 X0.1 Y200.0 Z0.3 F1500.0 E15 ; Draw the first line
G1 X0.4 Y200.0 Z0.3 F5000.0 ; Move to side a little
G1 X0.4 Y20 Z0.3 F1500.0 E30 ; Draw the second line
G92 E0 ; Reset Extruder
G1 Z2.0 F3000 ; Move Z Axis up little to prevent scratching of Heat Bed
G1 X5 Y20 Z0.3 F5000.0 ; Move over to prevent blob squish
G92 E0
G92 E0
G1 F1500 E-5
;LAYER_COUNT:95
;LAYER:0
M107
G0 F6000 X127.522 Y99.628 Z0.2
;TYPE:SKIRT
G1 F1500 E0
G1 F1200 X128.424 Y99.681 E0.03005
G1 X129.317 Y99.813 E0.06008
G1 X130.196 Y100.024 E0.09014
G1 X131.052 Y100.312 E0.12018
G1 X131.879 Y100.674 E0.15021
G1 X132.671 Y101.108 E0.18025
G1 X133.421 Y101.611 E0.21028
G1 X134.124 Y102.178 E0.24032
G1 X134.67 Y102.695 E0.26533
G1 X135.283 Y103.358 E0.29536
G1 X135.835 Y104.073 E0.32541
G1 X136.321 Y104.834 E0.35544
G1 X136.738 Y105.635 E0.38547
G1 X137.082 Y106.47 E0.41551
G1 X137.351 Y107.332 E0.44554
G1 X137.543 Y108.215 E0.4756
G1 X137.656 Y109.111 E0.50564
G1 X137.689 Y109.715 E0.52575
G1 X137.7 Y110.454 E0.55034
G1 X137.703 Y116.51 E0.75176
G1 X137.7 Y118.79 E0.82759
G1 X137.699 Y124.469 E1.01648
G1 X137.689 Y125.198 E1.04073
G1 X137.637 Y126.099 E1.07074
G1 X137.505 Y126.993 E1.1008
G1 X137.294 Y127.871 E1.13083
G1 X137.007 Y128.727 E1.16086
G1 X136.645 Y129.555 E1.19092
G1 X136.212 Y130.347 E1.22094
G1 X135.71 Y131.098 E1.25099
G1 X134.891 Y132.077 E1.29344
G1 X134.781 Y132.193 E1.29876
G1 X134.132 Y132.82 E1.32877
G1 X133.429 Y133.387 E1.35881
G1 X132.679 Y133.89 E1.38885
G1 X131.887 Y134.324 E1.41888
G1 X131.06 Y134.687 E1.44892
G1 X130.204 Y134.975 E1.47896
G1 X129.326 Y135.187 E1.509
G1 X128.433 Y135.32 E1.53903
G1 X127.722 Y135.368 E1.56273
G1 X127.356 Y135.378 E1.57491
G1 X126.821 Y135.384 E1.59271
G1 X108.177 Y135.382 E2.21281
G1 X107.476 Y135.372 E2.23613
G1 X106.574 Y135.319 E2.26618
G1 X105.681 Y135.187 E2.2962
G1 X104.802 Y134.976 E2.32627
G1 X103.946 Y134.688 E2.35631
G1 X103.119 Y134.326 E2.38633
G1 X102.327 Y133.892 E2.41637
G1 X101.577 Y133.389 E2.44641
G1 X100.874 Y132.822 E2.47645
G1 X100.376 Y132.353 E2.4992
G1 X100.265 Y132.241 E2.50444
G1 X99.659 Y131.572 E2.53447
G1 X99.113 Y130.852 E2.56452
G1 X98.634 Y130.087 E2.59454
G1 X98.224 Y129.282 E2.62459
G1 X97.887 Y128.444 E2.65463
G1 X97.626 Y127.58 E2.68465
G1 X97.442 Y126.695 E2.71471
G1 X97.316 Y125.405 E2.75782
G1 X97.306 Y125.029 E2.77033
G1 X97.3 Y124.474 E2.78879
G1 X97.297 Y118.49 E2.98782
G1 X97.3 Y116.152 E3.06558
G1 X97.301 Y110.479 E3.25427
G1 X97.311 Y109.795 E3.27702
G1 X97.364 Y108.893 E3.30707
G1 X97.497 Y108 E3.3371
G1 X97.708 Y107.122 E3.36714
G1 X97.996 Y106.266 E3.39718
G1 X98.359 Y105.439 E3.42721
G1 X98.793 Y104.647 E3.45725
G1 X99.296 Y103.897 E3.48729
G1 X100.109 Y102.925 E3.52944
G1 X100.219 Y102.809 E3.53475
G1 X100.868 Y102.182 E3.56477
G1 X101.571 Y101.615 E3.59481
G1 X102.321 Y101.112 E3.62484
G1 X103.113 Y100.678 E3.65488
G1 X103.94 Y100.315 E3.68492
G1 X104.796 Y100.027 E3.71496
G1 X105.674 Y99.815 E3.745
G1 X106.567 Y99.682 E3.77503
G1 X107.505 Y99.629 E3.80628
G1 X108.594 Y99.617 E3.8425
G1 X126.821 Y99.618 E4.44873
G1 X127.522 Y99.628 E4.47205
G0 F6000 X127.528 Y99.228
G1 F1200 X128.447 Y99.281 E4.50266
G1 X129.358 Y99.414 E4.53329
G1 X130.254 Y99.625 E4.5639
G1 X131.129 Y99.913 E4.59454
G1 X131.975 Y100.276 E4.62516
G1 X132.786 Y100.711 E4.65577
G1 X133.557 Y101.215 E4.68641
G1 X134.281 Y101.784 E4.71703
G1 X134.839 Y102.298 E4.74227
G1 X134.952 Y102.41 E4.74756
G1 X135.577 Y103.086 E4.77818
G1 X136.141 Y103.814 E4.80881
G1 X136.64 Y104.588 E4.83944
G1 X137.07 Y105.402 E4.87006
G1 X137.427 Y106.25 E4.90066
G1 X137.71 Y107.126 E4.93128
G1 X137.916 Y108.024 E4.96192
G1 X138.042 Y108.936 E4.99254
G1 X138.088 Y109.701 E5.01803
G1 X138.1 Y110.454 E5.04308
G1 X138.103 Y116.511 E5.24454
G1 X138.1 Y118.787 E5.32024
G1 X138.099 Y124.474 E5.50939
G1 X138.089 Y125.203 E5.53364
G1 X138.036 Y126.123 E5.56429
G1 X137.904 Y127.034 E5.5949
G1 X137.694 Y127.93 E5.62551
G1 X137.406 Y128.804 E5.65612
G1 X137.043 Y129.651 E5.68677
G1 X136.609 Y130.462 E5.71736
G1 X136.105 Y131.233 E5.748
G1 X135.537 Y131.958 E5.77863
G1 X135.072 Y132.468 E5.80159
G1 X134.41 Y133.108 E5.83221
G1 X133.695 Y133.688 E5.86283
G1 X132.932 Y134.204 E5.89347
G1 X132.128 Y134.651 E5.92406
G1 X131.287 Y135.028 E5.95472
G1 X130.418 Y135.329 E5.98531
G1 X129.525 Y135.555 E6.01594
G1 X128.616 Y135.702 E6.04657
G1 X127.736 Y135.768 E6.07592
G1 X127.361 Y135.778 E6.0884
G1 X126.821 Y135.784 E6.10636
G1 X108.171 Y135.782 E6.72666
G1 X107.47 Y135.772 E6.74998
G1 X106.551 Y135.719 E6.7806
G1 X105.64 Y135.586 E6.81122
G1 X104.744 Y135.375 E6.84183
G1 X103.869 Y135.087 E6.87247
G1 X103.023 Y134.724 E6.90309
G1 X102.212 Y134.289 E6.9337
G1 X101.441 Y133.785 E6.96434
G1 X100.717 Y133.216 E6.99496
G1 X100.092 Y132.635 E7.02335
G1 X99.981 Y132.523 E7.02859
G1 X99.362 Y131.841 E7.05922
G1 X98.804 Y131.109 E7.08984
G1 X98.313 Y130.33 E7.12046
G1 X97.89 Y129.512 E7.15109
G1 X97.54 Y128.661 E7.1817
G1 X97.265 Y127.782 E7.21233
G1 X97.068 Y126.883 E7.24294
G1 X96.949 Y125.97 E7.27356
G1 X96.911 Y125.271 E7.29685
G1 X96.9 Y124.474 E7.32336
G1 X96.897 Y118.49 E7.52239
G1 X96.9 Y116.155 E7.60005
G1 X96.901 Y110.473 E7.78903
G1 X96.911 Y109.789 E7.81179
G1 X96.965 Y108.87 E7.8424
G1 X97.098 Y107.959 E7.87303
G1 X97.309 Y107.063 E7.90364
G1 X97.598 Y106.189 E7.93426
G1 X97.961 Y105.343 E7.96488
G1 X98.396 Y104.531 E7.99552
G1 X98.9 Y103.761 E8.02613
G1 X99.469 Y103.037 E8.05675
G1 X99.928 Y102.534 E8.0794
G1 X100.59 Y101.894 E8.11003
G1 X101.305 Y101.314 E8.14065
G1 X102.068 Y100.798 E8.17128
G1 X102.872 Y100.351 E8.20188
G1 X103.713 Y99.974 E8.23253
G1 X104.582 Y99.673 E8.26312
G1 X105.475 Y99.447 E8.29376
G1 X106.384 Y99.3 E8.32439
G1 X107.5 Y99.229 E8.36158
G1 X108.594 Y99.217 E8.39797
G1 X126.827 Y99.218 E9.0044
G1 X127.528 Y99.228 E9.02772
G0 F6000 X127.534 Y98.828
G1 F1200 X128.47 Y98.881 E9.0589
G1 X129.399 Y99.014 E9.09011
G1 X130.312 Y99.226 E9.12129
G1 X131.205 Y99.514 E9.15249
G1 X132.069 Y99.878 E9.18368
G1 X132.9 Y100.314 E9.21489
G1 X133.69 Y100.819 E9.24608
G1 X134.434 Y101.389 E9.27725
G1 X135.121 Y102.014 E9.30814
G1 X135.234 Y102.126 E9.31343
G1 X135.871 Y102.814 E9.34462
G1 X136.447 Y103.554 E9.37581
G1 X136.959 Y104.34 E9.40701
G1 X137.401 Y105.167 E9.43819
G1 X137.772 Y106.029 E9.46941
G1 X138.067 Y106.919 E9.50059
G1 X138.286 Y107.831 E9.53179
G1 X138.426 Y108.758 E9.56297
G1 X138.483 Y109.546 E9.58925
G1 X138.494 Y109.932 E9.60209
G1 X138.5 Y110.454 E9.61945
G1 X138.503 Y116.512 E9.82094
G1 X138.5 Y118.784 E9.89651
G1 X138.499 Y124.48 E10.08596
G1 X138.489 Y125.209 E10.11021
G1 X138.436 Y126.145 E10.14139
G1 X138.304 Y127.074 E10.1726
G1 X138.093 Y127.988 E10.2038
G1 X137.805 Y128.88 E10.23497
G1 X137.442 Y129.745 E10.26618
G1 X137.006 Y130.576 E10.29739
G1 X136.502 Y131.366 E10.32855
G1 X135.931 Y132.111 E10.35977
G1 X135.472 Y132.627 E10.38274
G1 X135.362 Y132.743 E10.38806
G1 X134.688 Y133.395 E10.41925
G1 X133.961 Y133.988 E10.45045
G1 X133.186 Y134.517 E10.48166
G1 X132.37 Y134.977 E10.51282
G1 X131.516 Y135.367 E10.54405
G1 X130.633 Y135.682 E10.57523
G1 X129.726 Y135.921 E10.60642
G1 X128.802 Y136.082 E10.63762
G1 X127.749 Y136.168 E10.67276
G1 X127.365 Y136.178 E10.68553
G1 X126.821 Y136.184 E10.70363
G1 X108.165 Y136.182 E11.32413
G1 X107.464 Y136.172 E11.34745
G1 X106.528 Y136.119 E11.37863
G1 X105.599 Y135.986 E11.40984
G1 X104.686 Y135.774 E11.44102
G1 X103.793 Y135.486 E11.47223
G1 X102.929 Y135.122 E11.50341
G1 X102.098 Y134.686 E11.53462
G1 X101.308 Y134.181 E11.56581
G1 X100.564 Y133.611 E11.59698
G1 X99.808 Y132.916 E11.63113
G1 X99.697 Y132.804 E11.63638
G1 X99.066 Y132.111 E11.66755
G1 X98.496 Y131.366 E11.69875
G1 X97.992 Y130.575 E11.72995
G1 X97.557 Y129.744 E11.76114
G1 X97.194 Y128.879 E11.79234
G1 X96.906 Y127.986 E11.82355
G1 X96.695 Y127.073 E11.85472
G1 X96.563 Y126.144 E11.88593
G1 X96.511 Y125.284 E11.91458
G1 X96.5 Y124.474 E11.94153
G1 X96.497 Y118.489 E12.14059
G1 X96.5 Y116.158 E12.21812
G1 X96.501 Y110.467 E12.4074
G1 X96.511 Y109.783 E12.43015
G1 X96.565 Y108.847 E12.46134
G1 X96.698 Y107.919 E12.49252
G1 X96.91 Y107.005 E12.52373
G1 X97.199 Y106.113 E12.55491
G1 X97.563 Y105.248 E12.58612
G1 X97.999 Y104.418 E12.61731
G1 X98.504 Y103.628 E12.64849
G1 X99.075 Y102.884 E12.67969
G1 X99.528 Y102.375 E12.70235
G1 X99.638 Y102.259 E12.70767
G1 X100.312 Y101.607 E12.73886
G1 X101.039 Y101.014 E12.77006
G1 X101.814 Y100.485 E12.80127
G1 X102.63 Y100.025 E12.83242
G1 X103.484 Y99.635 E12.86365
G1 X104.367 Y99.32 E12.89483
G1 X105.274 Y99.081 E12.92603
G1 X106.198 Y98.92 E12.95722
G1 X107.496 Y98.829 E13.0005
G1 X108.594 Y98.817 E13.03702
G1 X126.833 Y98.818 E13.64366
G1 X127.534 Y98.828 E13.66697
G0 F6000 X109.7 Y112.017
G1 F1200 X125.3 Y112.017 E14.18583
G1 X125.3 Y112.616 E14.20575
G1 X109.7 Y112.616 E14.72461
G1 X109.7 Y112.017 E14.74454
G0 F6000 X109.3 Y111.617
G1 F1200 X125.7 Y111.617 E15.29
G1 X125.7 Y113.016 E15.33653
G1 X109.3 Y113.016 E15.882
G1 X109.3 Y111.617 E15.92853
G0 F6000 X108.9 Y111.217
G1 F1200 X126.1 Y111.217 E16.5006
G1 X126.1 Y113.416 E16.57374
G1 X108.9 Y113.416 E17.14582
G1 X108.9 Y111.217 E17.21896
G0 F6000 X108.5 Y110.817
G1 F1200 X126.5 Y110.817 E17.81764
G1 X126.5 Y113.816 E17.91739
G1 X108.5 Y113.816 E18.51607
G1 X108.5 Y110.817 E18.61582
G0 F6000 X108.1 Y110.417
G1 F1200 X126.9 Y110.417 E19.24111
G1 X126.9 Y114.216 E19.36746
G1 X108.1 Y114.216 E19.99275
G1 X108.1 Y110.417 E20.11911
G0 F6000 X107.871 Y110.017
G1 F1200 X127.3 Y110.017 E20.76532
G1 X127.3 Y114.616 E20.91828
G1 X121.711 Y114.616 E21.10417
G1 X121.707 Y114.615 E21.10431
G1 X107.7 Y114.616 E21.57018
G1 X107.7 Y110.018 E21.72311
G1 X107.701 Y110.016 E21.72319
G1 X107.871 Y110.017 E21.72884
G1 F1500 E16.72884
G0 F6000 X106.847 Y114.163
G0 X106.847 Y120.837
G0 X107.7 Y120.849
G0 X107.7 Y120.384
G1 F1500 E21.72884
G1 F1200 X127.3 Y120.384 E22.38074
G1 X127.3 Y124.984 E22.53374
G1 X107.7 Y124.983 E23.18564
G1 X107.7 Y120.384 E23.3386
G0 F6000 X108.1 Y120.784
G1 F1200 X126.9 Y120.784 E23.96389
G1 X126.9 Y124.584 E24.09028
G1 X108.1 Y124.583 E24.71557
G1 X108.1 Y120.784 E24.84192
G0 F6000 X108.5 Y121.184
G1 F1200 X126.5 Y121.184 E25.44061
G1 X126.5 Y124.184 E25.54039
G1 X108.5 Y124.183 E26.13907
G1 X108.5 Y121.184 E26.23882
G0 F6000 X108.9 Y121.584
G1 F1200 X126.1 Y121.584 E26.81089
G1 X126.1 Y123.784 E26.88406
G1 X108.9 Y123.783 E27.45614
G1 X108.9 Y121.584 E27.52928
G0 F6000 X109.3 Y121.984
G1 F1200 X125.7 Y121.984 E28.07474
G1 X125.7 Y123.384 E28.12131
G1 X109.3 Y123.383 E28.66677
G1 X109.3 Y121.984 E28.7133
G0 F6000 X109.7 Y122.384
G1 F1200 X125.3 Y122.384 E29.23216
G1 X125.3 Y122.984 E29.25212
G1 X109.7 Y122.983 E29.77098
G1 X109.7 Y122.384 E29.7909
G1 F1500 E24.7909
G0 F6000 X107.7 Y120.849
G0 X107.7 Y119.984
;TYPE:SUPPORT-INTERFACE
G1 F1500 E29.7909
G1 F1200 X107.7 Y118.708 E29.83334
G1 X127.3 Y118.708 E30.48524
G1 X127.3 Y119.984 E30.52768
G1 X107.7 Y119.984 E31.17958
G1 F1500 E26.17958
G0 F6000 X106.835 Y119.984
G0 X106.835 Y116.292
G0 X107.7 Y116.292
G1 F1500 E31.17958
G1 F1200 X107.7 Y115.016 E31.22202
G1 X121.66 Y115.015 E31.68633
G1 X121.662 Y115.016 E31.6864
G1 X127.3 Y115.016 E31.87392
G1 X127.3 Y116.292 E31.91636
G1 X127.163 Y116.292 E31.92092
G1 X127.161 Y116.291 E31.92099
G1 X107.7 Y116.292 E32.56827
G0 F6000 X107.92 Y116.091
G1 F1200 X108.796 Y115.214 E32.6095
G0 F6000 X108.427 Y115.215
G1 F1200 X109.303 Y116.091 E32.6507
G0 F6000 X111.314 Y116.091
G1 F1200 X112.19 Y115.214 E32.69193
G0 F6000 X111.821 Y115.215
G1 F1200 X112.697 Y116.091 E32.73313
G0 F6000 X114.708 Y116.091
G1 F1200 X115.585 Y115.214 E32.77439
G0 F6000 X115.215 Y115.215
G1 F1200 X116.091 Y116.091 E32.81559
G0 F6000 X118.102 Y116.091
G1 F1200 X118.979 Y115.214 E32.85684
G0 F6000 X118.609 Y115.215
G1 F1200 X119.485 Y116.091 E32.89805
G0 F6000 X121.496 Y116.091
G1 F1200 X122.371 Y115.215 E32.93923
G0 F6000 X122.004 Y115.215
G1 F1200 X122.879 Y116.091 E32.98041
G0 F6000 X124.89 Y116.091
G1 F1200 X125.766 Y115.215 E33.02161
G0 F6000 X125.398 Y115.215
G1 F1200 X126.273 Y116.091 E33.06279
G0 F6000 X125.696 Y118.907
G1 F1200 X126.571 Y119.783 E33.10397
G0 F6000 X125.469 Y118.907
G1 F1200 X124.592 Y119.783 E33.1452
G0 F6000 X123.177 Y119.783
G1 F1200 X122.301 Y118.907 E33.18641
G0 F6000 X122.074 Y118.907
G1 F1200 X121.198 Y119.783 E33.22761
G0 F6000 X119.783 Y119.783
G1 F1200 X118.907 Y118.907 E33.26881
G0 F6000 X118.68 Y118.907
G1 F1200 X117.803 Y119.783 E33.31004
G0 F6000 X116.389 Y119.783
G1 F1200 X115.513 Y118.907 E33.35125
G0 F6000 X115.286 Y118.907
G1 F1200 X114.409 Y119.783 E33.39247
G0 F6000 X112.994 Y119.783
G1 F1200 X112.119 Y118.907 E33.43366
G0 F6000 X111.892 Y118.907
G1 F1200 X111.015 Y119.783 E33.47488
G0 F6000 X109.6 Y119.783
G1 F1200 X108.725 Y118.907 E33.51606
G0 F6000 X108.498 Y118.907
G1 F1200 X107.9 Y119.505 E33.54419
G1 F1500 E28.54419
;MESH:a2_7_supports.stl
G0 F6000 X107.9 Y117.688
G0 X127.3 Y117.508
;TYPE:WALL-OUTER
G1 F1500 E33.54419
G1 F1200 X107.7 Y117.508 E34.19609
G1 X107.7 Y117.492 E34.19662
G1 X126.885 Y117.491 E34.83472
G1 X126.886 Y117.492 E34.83477
G1 X127.3 Y117.492 E34.84854
G1 X127.3 Y117.508 E34.84907
G0 F6000 X127.1 Y117.308
G1 F1500 E29.84907
;MESH:NONMESH
G0 F300 X127.1 Y117.308 Z0.4
G0 F6000 X127.1 Y117.392
G0 X107.701 Y117.292
G0 X106.871 Y117.131
G0 X106.847 Y114.163
G0 X107.701 Y110.016
;TIME_ELAPSED:64.808205
;LAYER:1
M140 S60
M106 S85
;TYPE:SUPPORT
G1 F1500 E34.84907
G1 F1350 X127.3 Y110.017 E35.50093
G1 X127.3 Y114.201 E35.64009
G1 X120.693 Y114.201 E35.85984
G1 X120.691 Y114.2 E35.85992
G1 X107.7 Y114.201 E36.292
G1 X107.7 Y110.018 E36.43113
G1 X107.701 Y110.016 E36.4312
G0 F7500 X107.98 Y110.296
G1 F1350 X107.98 Y113.921 E36.55177
G1 X108 Y113.921 E36.55243
G1 X108 Y110.297 E36.67297
G1 X107.98 Y110.296 E36.67364
G0 F7500 X108 Y110.297
G1 F1350 X110 Y110.297 E36.74016
G1 X110 Y113.921 E36.86069
G1 X112 Y113.921 E36.92721
G1 X112 Y110.297 E37.04775
G1 X114 Y110.297 E37.11427
G1 X114 Y113.921 E37.2348
G1 X116 Y113.921 E37.30132
G1 X116 Y110.297 E37.42186
G1 X118 Y110.297 E37.48838
G1 X118 Y113.921 E37.60891
G1 X120 Y113.921 E37.67543
G1 X120 Y110.297 E37.79597
G1 X122 Y110.297 E37.86249
G1 X122 Y113.921 E37.98302
G1 X124 Y113.921 E38.04954
G1 X124 Y110.297 E38.17008
G1 X126 Y110.297 E38.2366
G1 X126 Y113.921 E38.35713
G1 X127.02 Y113.921 E38.39106
G1 X127.02 Y110.297 E38.51159
G1 X126 Y110.297 E38.54552
G1 F1500 E33.54552
G0 F7500 X126 Y109.152
G0 X127.657 Y109.156
G0 X128.161 Y109.66
G0 X128.165 Y120.799
G0 X127.3 Y120.799
G1 F1500 E38.54552
G1 F1350 X127.3 Y124.984 E38.68471
G1 X107.7 Y124.983 E39.33661
G1 X107.7 Y120.799 E39.47577
G1 X127.3 Y120.799 E40.12767
G0 F7500 X127.02 Y121.079
G1 F1350 X127.02 Y124.704 E40.24824
G1 X126 Y124.703 E40.28216
G1 X126 Y121.079 E40.4027
G1 X124 Y121.079 E40.46922
G1 X124 Y124.703 E40.58975
G1 X122 Y124.703 E40.65627
G1 X122 Y121.079 E40.77681
G1 X120 Y121.079 E40.84333
G1 X120 Y124.703 E40.96386
G1 X118 Y124.703 E41.03038
G1 X118 Y121.079 E41.15092
G1 X116 Y121.079 E41.21744
G1 X116 Y124.703 E41.33797
G1 X114 Y124.703 E41.40449
G1 X114 Y121.079 E41.52503
G1 X112 Y121.079 E41.59155
G1 X112 Y124.703 E41.71208
G1 X110 Y124.703 E41.7786
G1 X110 Y121.079 E41.89914
G1 X108 Y121.079 E41.96566
G1 X107.98 Y121.079 E41.96632
G1 X107.98 Y124.703 E42.08686
G1 X108 Y124.703 E42.08752
G1 X108 Y121.079 E42.20806
G1 F1500 E37.20806
G0 F7500 X106.835 Y121.079
G0 X106.839 Y125.34
G0 X107.343 Y125.844
G0 X127.657 Y125.845
G0 X128.161 Y125.341
G0 X128.165 Y121.079
G0 X126 Y121.079
G1 F1500 E42.20806
G1 F1350 X127.02 Y121.079 E42.24198
G0 F7500 X127.171 Y120.599
;TYPE:SUPPORT-INTERFACE
G1 F1350 X127.499 Y120.271 E42.25741
G0 F7500 X127.386 Y120.598
