;FLAVOR:Marlin
;TIME:4446
;Filament used: 4.44054m
;Layer height: 0.28
;MINX:83.49
;MINY:82.941
;MINZ:0.28
;MAXX:151.482
;MAXY:152.049
;MAXZ:17.08
;Generated with Cura_SteamEngine 4.6.1
M140 S60
M105
M190 S60
M104 S200
M105
M109 S200
M82 ;absolute extrusion mode
; Ender 3 Custom Start G-code
G92 E0 ; Reset Extruder
G28 ; Home all axes
G1 Z2.0 F3000 ; Move Z Axis up little to prevent scratching of Heat Bed
G1 X0.1 Y20 Z0.3 F5000.0 ; Move to start position
G1 X0.1 Y200.0 Z0.3 F1500.0 E15 ; Draw the first line
G1 X0.4 Y200.0 Z0.3 F5000.0 ; Move to side a little
G1 X0.4 Y20 Z0.3 F1500.0 E30 ; Draw the second line
G92 E0 ; Reset Extruder
G1 Z2.0 F3000 ; Move Z Axis up little to prevent scratching of Heat Bed
G1 X5 Y20 Z0.3 F5000.0 ; Move over to prevent blob squish
G92 E0
G92 E0
G1 F1500 E-5
;LAYER_COUNT:61
;LAYER:0
M107
G0 F6000 X123.229 Y83.965 Z0.28
;TYPE:SKIRT
G1 F1500 E0
G1 F1200 X124.037 Y84.082 E0.03802
G1 X125.147 Y84.307 E0.09075
G1 X125.454 Y84.387 E0.10553
G1 X125.796 Y84.482 E0.12205
G1 X126.804 Y84.784 E0.17105
G1 X127.431 Y84.98 E0.20164
G1 X128.558 Y85.406 E0.25774
G1 X129.659 Y85.904 E0.31401
G1 X130.258 Y86.194 E0.345
G1 X130.996 Y86.59 E0.384
G1 X131.196 Y86.708 E0.39481
G1 X131.494 Y86.891 E0.4111
G1 X132.178 Y87.329 E0.44892
G1 X132.732 Y87.695 E0.47983
G1 X133.697 Y88.417 E0.53595
G1 X134.698 Y89.268 E0.59713
G1 X134.977 Y89.516 E0.61451
G1 X135.49 Y89.981 E0.64675
G1 X136.319 Y90.824 E0.70181
G1 X136.991 Y91.598 E0.74954
G1 X137.429 Y92.127 E0.78152
G1 X137.803 Y92.607 E0.80985
G1 X138.576 Y93.663 E0.87079
G1 X142.854 Y99.541 E1.20931
G1 X146.697 Y104.88 E1.51562
G1 X147.082 Y105.432 E1.54696
G1 X147.713 Y106.462 E1.6032
G1 X148.365 Y107.69 E1.66794
G1 X148.657 Y108.274 E1.69835
G1 X149.125 Y109.363 E1.75354
G1 X149.448 Y110.255 E1.79771
G1 X149.547 Y110.544 E1.81194
G1 X149.779 Y111.25 E1.84654
G1 X150.093 Y112.443 E1.90399
G1 X150.363 Y113.824 E1.96951
G1 X150.493 Y114.605 E2.00637
G1 X150.622 Y115.861 E2.06517
G1 X150.668 Y116.98 E2.11732
G1 X150.677 Y117.331 E2.13367
G1 X150.682 Y118.079 E2.1685
G1 X150.627 Y119.203 E2.2209
G1 X150.557 Y119.832 E2.25037
G1 X150.419 Y120.839 E2.2977
G1 X150.315 Y121.527 E2.3301
G1 X150.073 Y122.679 E2.38491
G1 X149.772 Y123.768 E2.43752
G1 X149.56 Y124.468 E2.47158
G1 X149.254 Y125.334 E2.51434
G1 X149.045 Y125.845 E2.54005
G1 X148.773 Y126.467 E2.57166
G1 X148.49 Y127.091 E2.60357
G1 X148.15 Y127.772 E2.63901
G1 X148.039 Y127.975 E2.64978
G1 X147.834 Y128.333 E2.66899
G1 X147.402 Y129.05 E2.70797
G1 X147.027 Y129.652 E2.741
G1 X146.762 Y130.056 E2.76349
G1 X146.286 Y130.739 E2.80226
G1 X137.855 Y142.304 E3.46868
G1 X137.417 Y142.886 E3.5026
G1 X136.865 Y143.558 E3.54309
G1 X136.091 Y144.415 E3.59686
G1 X135.678 Y144.847 E3.62469
G1 X135.097 Y145.408 E3.6623
G1 X134.855 Y145.624 E3.67741
G1 X134.589 Y145.853 E3.69375
G1 X134.054 Y146.297 E3.72612
G1 X133.499 Y146.746 E3.75936
G1 X132.551 Y147.427 E3.81372
G1 X131.311 Y148.202 E3.88181
G1 X130.761 Y148.528 E3.91158
G1 X129.676 Y149.087 E3.96841
G1 X128.676 Y149.528 E4.0193
G1 X128.362 Y149.66 E4.03516
G1 X127.757 Y149.903 E4.06552
G1 X126.853 Y150.218 E4.1101
G1 X125.989 Y150.474 E4.15206
G1 X125.671 Y150.562 E4.16742
G1 X125.323 Y150.653 E4.18417
G1 X124.435 Y150.844 E4.22646
G1 X123.259 Y151.037 E4.28196
G1 X122.557 Y151.134 E4.31496
G1 X121.361 Y151.228 E4.37082
G1 X120.19 Y151.249 E4.42535
G1 X119.753 Y151.248 E4.4457
G1 X119.159 Y151.24 E4.47336
G1 X117.962 Y151.153 E4.52925
G1 X116.624 Y150.972 E4.59212
G1 X115.91 Y150.855 E4.62581
G1 X115.006 Y150.664 E4.66883
G1 X114.152 Y150.44 E4.70994
G1 X113.329 Y150.199 E4.74987
G1 X112.849 Y150.046 E4.77333
G1 X98.92 Y145.464 E5.45612
G1 X98.274 Y145.242 E5.48792
G1 X97.434 Y144.911 E5.52996
G1 X96.932 Y144.671 E5.55587
G1 X96.096 Y144.24 E5.59967
G1 X95.637 Y143.994 E5.62392
G1 X95.026 Y143.657 E5.65641
G1 X94.316 Y143.227 E5.69506
G1 X94.138 Y143.109 E5.70501
G1 X93.446 Y142.622 E5.74441
G1 X92.811 Y142.152 E5.78119
G1 X92.001 Y141.485 E5.83005
G1 X91.478 Y141.005 E5.86311
G1 X90.846 Y140.403 E5.90375
G1 X90.373 Y139.939 E5.9346
G1 X89.631 Y139.128 E5.98579
G1 X89.2 Y138.595 E6.01771
G1 X88.626 Y137.844 E6.06172
G1 X88.25 Y137.339 E6.09104
G1 X87.604 Y136.359 E6.14569
G1 X87.046 Y135.387 E6.19788
G1 X86.659 Y134.673 E6.2357
G1 X86.175 Y133.648 E6.28848
G1 X85.737 Y132.558 E6.34318
G1 X85.495 Y131.91 E6.37539
G1 X85.15 Y130.798 E6.4296
G1 X84.85 Y129.574 E6.48828
G1 X84.707 Y128.929 E6.51905
G1 X84.516 Y127.737 E6.57526
G1 X84.383 Y126.366 E6.6394
G1 X84.326 Y125.542 E6.67786
G1 X84.303 Y124.963 E6.70484
G1 X84.295 Y124.185 E6.74107
G1 X84.299 Y123.691 E6.76407
G1 X84.29 Y116.766 E7.08653
G1 X84.312 Y109.97 E7.40298
G1 X84.322 Y109.428 E7.42822
G1 X84.379 Y108.52 E7.47059
G1 X84.495 Y107.447 E7.52084
G1 X84.539 Y107.101 E7.53708
G1 X84.626 Y106.492 E7.56573
G1 X84.87 Y105.296 E7.62257
G1 X85.214 Y104.022 E7.68401
G1 X85.392 Y103.414 E7.71351
G1 X85.808 Y102.257 E7.77076
G1 X86.366 Y100.969 E7.83613
G1 X86.678 Y100.301 E7.87046
G1 X87.266 Y99.218 E7.92784
G1 X87.853 Y98.277 E7.97948
G1 X88.045 Y97.981 E7.99591
G1 X88.467 Y97.354 E8.0311
G1 X89.26 Y96.324 E8.09163
G1 X89.771 Y95.745 E8.12759
G1 X90.381 Y95.08 E8.16961
G1 X90.875 Y94.554 E8.20321
G1 X91.384 Y94.049 E8.2366
G1 X91.544 Y93.901 E8.24675
G1 X91.841 Y93.637 E8.26525
G1 X92.055 Y93.454 E8.27836
G1 X92.515 Y93.083 E8.30588
G1 X93.338 Y92.462 E8.35389
G1 X93.914 Y92.048 E8.38692
G1 X94.916 Y91.413 E8.44216
G1 X95.828 Y90.909 E8.49068
G1 X96.282 Y90.667 E8.51463
G1 X96.931 Y90.331 E8.54866
G1 X97.718 Y89.965 E8.58908
G1 X97.957 Y89.866 E8.60112
G1 X98.365 Y89.707 E8.62151
G1 X99.152 Y89.42 E8.66052
G1 X99.457 Y89.315 E8.67554
G1 X107.582 Y86.664 E9.0735
G1 X113.562 Y84.743 E9.36597
G1 X114.18 Y84.554 E9.39606
G1 X115.178 Y84.303 E9.44398
G1 X116.034 Y84.136 E9.48459
G1 X116.714 Y84.017 E9.51674
G1 X117.309 Y83.921 E9.5448
G1 X118.506 Y83.8 E9.60082
G1 X119.577 Y83.755 E9.65074
G1 X119.932 Y83.746 E9.66727
G1 X120.627 Y83.741 E9.69963
G1 X121.831 Y83.804 E9.75577
G1 X123.229 Y83.965 E9.8213
G0 F6000 X123.286 Y83.569
G1 F1200 X124.094 Y83.686 E9.85932
G1 X125.248 Y83.92 E9.91415
G1 X125.555 Y84 E9.92892
G1 X125.91 Y84.099 E9.94608
G1 X126.924 Y84.402 E9.99536
G1 X127.551 Y84.598 E10.02595
G1 X128.721 Y85.041 E10.0842
G1 X129.833 Y85.544 E10.14103
G1 X130.432 Y85.834 E10.17202
G1 X131.199 Y86.246 E10.21256
G1 X131.399 Y86.364 E10.22338
G1 X131.709 Y86.554 E10.24031
G1 X132.399 Y86.995 E10.27844
G1 X132.953 Y87.361 E10.30935
G1 X133.956 Y88.112 E10.3677
G1 X134.963 Y88.968 E10.42924
G1 X135.246 Y89.219 E10.44686
G1 X135.759 Y89.684 E10.4791
G1 X136.62 Y90.561 E10.53632
G1 X137.299 Y91.343 E10.58455
G1 X137.737 Y91.872 E10.61653
G1 X138.125 Y92.371 E10.64596
G1 X138.898 Y93.427 E10.7069
G1 X143.179 Y99.308 E11.04561
G1 X147.025 Y104.651 E11.35216
G1 X147.41 Y105.203 E11.38349
G1 X148.066 Y106.274 E11.44198
G1 X148.723 Y107.512 E11.50724
G1 X149.015 Y108.096 E11.53764
G1 X149.501 Y109.227 E11.59496
G1 X149.824 Y110.119 E11.63914
G1 X149.927 Y110.419 E11.65391
G1 X150.159 Y111.125 E11.68851
G1 X150.485 Y112.365 E11.74821
G1 X150.697 Y113.43 E11.79877
G1 X150.757 Y113.759 E11.81435
G1 X150.887 Y114.54 E11.85121
G1 X151.022 Y115.845 E11.9123
G1 X151.068 Y116.964 E11.96445
G1 X151.077 Y117.328 E11.98141
G1 X151.082 Y118.076 E12.01624
G1 X151.025 Y119.245 E12.07074
G1 X150.992 Y119.562 E12.08558
G1 X150.953 Y119.885 E12.10073
G1 X150.815 Y120.898 E12.14833
G1 X150.711 Y121.586 E12.18073
G1 X150.459 Y122.784 E12.23774
G1 X150.155 Y123.883 E12.29083
G1 X149.943 Y124.583 E12.32489
G1 X149.625 Y125.484 E12.36938
G1 X149.412 Y126.004 E12.39555
G1 X149.138 Y126.632 E12.42745
G1 X148.855 Y127.256 E12.45936
G1 X148.501 Y127.963 E12.49617
G1 X148.39 Y128.166 E12.50695
G1 X148.177 Y128.539 E12.52695
G1 X147.741 Y129.262 E12.56626
G1 X147.366 Y129.864 E12.59929
G1 X147.091 Y130.283 E12.62262
G1 X146.609 Y130.974 E12.66185
G1 X138.175 Y142.545 E13.32858
G1 X137.737 Y143.127 E13.3625
G1 X137.163 Y143.825 E13.40458
G1 X136.614 Y144.438 E13.4429
G1 X136.38 Y144.691 E13.45895
G1 X135.967 Y145.123 E13.48678
G1 X135.363 Y145.706 E13.52587
G1 X135.121 Y145.922 E13.54097
G1 X134.845 Y146.16 E13.55794
G1 X134.306 Y146.608 E13.59058
G1 X133.751 Y147.057 E13.62382
G1 X132.765 Y147.765 E13.68034
G1 X131.515 Y148.547 E13.749
G1 X130.965 Y148.873 E13.77877
G1 X129.837 Y149.453 E13.83783
G1 X128.837 Y149.894 E13.88872
G1 X128.511 Y150.031 E13.90519
G1 X127.906 Y150.274 E13.93554
G1 X126.966 Y150.601 E13.98189
G1 X126.102 Y150.857 E14.02385
G1 X125.773 Y150.949 E14.03976
G1 X125.425 Y151.04 E14.0565
G1 X124.501 Y151.238 E14.10051
G1 X123.314 Y151.433 E14.15652
G1 X122.612 Y151.53 E14.18952
G1 X121.368 Y151.628 E14.24762
G1 X120.19 Y151.649 E14.30248
G1 X119.747 Y151.648 E14.32311
G1 X119.153 Y151.64 E14.35077
G1 X117.909 Y151.55 E14.40885
G1 X116.886 Y151.415 E14.4569
G1 X116.559 Y151.366 E14.4723
G1 X115.845 Y151.249 E14.50599
G1 X114.906 Y151.052 E14.55066
G1 X114.041 Y150.824 E14.59232
G1 X113.208 Y150.58 E14.63273
G1 X112.724 Y150.426 E14.65638
G1 X98.79 Y145.843 E15.3394
G1 X98.144 Y145.621 E15.37121
G1 X97.287 Y145.284 E15.41409
G1 X96.749 Y145.027 E15.44185
G1 X95.907 Y144.593 E15.48596
G1 X95.444 Y144.344 E15.51044
G1 X94.833 Y144.007 E15.54293
G1 X94.095 Y143.56 E15.58311
G1 X93.917 Y143.442 E15.59305
G1 X93.208 Y142.943 E15.63342
G1 X92.573 Y142.473 E15.67021
G1 X91.731 Y141.781 E15.72096
G1 X91.202 Y141.295 E15.75441
G1 X90.566 Y140.689 E15.79532
G1 X90.093 Y140.225 E15.82617
G1 X89.321 Y139.382 E15.87939
G1 X89.097 Y139.109 E15.89584
G1 X88.883 Y138.838 E15.91192
G1 X88.305 Y138.083 E15.95619
G1 X87.929 Y137.578 E15.98551
G1 X87.257 Y136.559 E16.04235
G1 X86.694 Y135.577 E16.09506
G1 X86.307 Y134.863 E16.13287
G1 X85.804 Y133.798 E16.18772
G1 X85.362 Y132.697 E16.24296
G1 X85.12 Y132.049 E16.27517
G1 X84.762 Y130.894 E16.33147
G1 X84.459 Y129.66 E16.39064
G1 X84.316 Y129.015 E16.42141
G1 X84.118 Y127.777 E16.47978
G1 X83.984 Y126.394 E16.54448
G1 X83.927 Y125.57 E16.58294
G1 X83.903 Y124.968 E16.611
G1 X83.895 Y124.182 E16.6476
G1 X83.899 Y123.688 E16.6706
G1 X83.89 Y116.767 E16.99287
G1 X83.912 Y109.962 E17.30975
G1 X83.922 Y109.42 E17.33499
G1 X83.981 Y108.477 E17.37898
G1 X84.097 Y107.404 E17.42924
G1 X84.143 Y107.044 E17.44614
G1 X84.23 Y106.435 E17.47478
G1 X84.484 Y105.193 E17.53381
G1 X84.83 Y103.91 E17.59569
G1 X85.008 Y103.302 E17.62519
G1 X85.44 Y102.1 E17.68466
G1 X85.867 Y101.105 E17.73508
G1 X86.004 Y100.799 E17.75069
G1 X86.316 Y100.131 E17.78502
G1 X86.926 Y99.007 E17.84457
G1 X87.513 Y98.066 E17.89621
G1 X87.713 Y97.757 E17.91335
G1 X88.135 Y97.13 E17.94855
G1 X88.959 Y96.061 E18.0114
G1 X89.476 Y95.475 E18.04778
G1 X90.089 Y94.806 E18.09003
G1 X90.583 Y94.28 E18.12364
G1 X91.112 Y93.756 E18.15831
G1 X91.272 Y93.608 E18.16846
G1 X91.581 Y93.333 E18.18772
G1 X91.795 Y93.15 E18.20083
G1 X92.273 Y92.765 E18.22941
G1 X93.104 Y92.138 E18.27788
G1 X93.68 Y91.724 E18.31091
G1 X94.722 Y91.063 E18.36837
G1 X95.639 Y90.556 E18.41716
G1 X96.099 Y90.312 E18.44141
G1 X96.748 Y89.976 E18.47544
G1 X97.564 Y89.596 E18.51735
G1 X97.803 Y89.497 E18.5294
G1 X98.228 Y89.332 E18.55063
G1 X99.331 Y88.935 E18.60521
G1 X100.686 Y88.494 E18.67156
G1 X107.458 Y86.284 E19.00326
G1 X113.445 Y84.36 E19.29609
G1 X114.063 Y84.171 E19.32618
G1 X115.1 Y83.911 E19.37596
G1 X115.965 Y83.742 E19.417
G1 X116.651 Y83.622 E19.44943
G1 X117.246 Y83.526 E19.47749
G1 X118.489 Y83.4 E19.53567
G1 X119.56 Y83.355 E19.58558
G1 X119.929 Y83.346 E19.60277
G1 X120.624 Y83.341 E19.63513
G1 X121.875 Y83.406 E19.69346
G1 X123.286 Y83.569 E19.7596
G0 F6000 X123.343 Y83.174
G1 F1200 X124.151 Y83.291 E19.79762
G1 X125.349 Y83.532 E19.85452
G1 X125.656 Y83.612 E19.86929
G1 X126.024 Y83.715 E19.88709
G1 X127.043 Y84.02 E19.93661
G1 X127.67 Y84.216 E19.9672
G1 X128.885 Y84.676 E20.0277
G1 X130.007 Y85.184 E20.08505
G1 X130.606 Y85.474 E20.11604
G1 X131.403 Y85.901 E20.15814
G1 X131.603 Y86.019 E20.16895
G1 X131.924 Y86.216 E20.18649
G1 X132.619 Y86.661 E20.22492
G1 X133.173 Y87.027 E20.25583
G1 X134.214 Y87.807 E20.31641
G1 X135.229 Y88.669 E20.37841
G1 X135.515 Y88.923 E20.39622
G1 X136.028 Y89.388 E20.42846
G1 X136.921 Y90.298 E20.48783
G1 X137.607 Y91.088 E20.53655
G1 X138.045 Y91.617 E20.56853
G1 X138.448 Y92.135 E20.59909
G1 X139.221 Y93.191 E20.66003
G1 X143.503 Y99.074 E20.99885
G1 X147.353 Y104.422 E21.30569
G1 X147.738 Y104.974 E21.33703
G1 X148.419 Y106.085 E21.3977
G1 X149.081 Y107.333 E21.46349
G1 X149.373 Y107.917 E21.49389
G1 X149.877 Y109.091 E21.55338
G1 X150.2 Y109.983 E21.59755
G1 X150.307 Y110.294 E21.61287
G1 X150.539 Y111 E21.64747
G1 X150.877 Y112.286 E21.70939
G1 X151.152 Y113.693 E21.77614
G1 X151.282 Y114.474 E21.81301
G1 X151.422 Y115.828 E21.87639
G1 X151.468 Y116.947 E21.92854
G1 X151.477 Y117.325 E21.94615
G1 X151.482 Y118.073 E21.98098
G1 X151.423 Y119.286 E22.03753
G1 X151.35 Y119.939 E22.06813
G1 X151.21 Y120.958 E22.11602
G1 X151.106 Y121.646 E22.14842
G1 X150.845 Y122.889 E22.20756
G1 X150.538 Y123.999 E22.26119
G1 X150.326 Y124.699 E22.29525
G1 X149.996 Y125.634 E22.34142
G1 X149.779 Y126.163 E22.36804
G1 X149.502 Y126.797 E22.40026
G1 X149.219 Y127.421 E22.43216
G1 X148.852 Y128.155 E22.47037
G1 X148.741 Y128.358 E22.48115
G1 X148.52 Y128.745 E22.5019
G1 X148.081 Y129.473 E22.54148
G1 X147.706 Y130.075 E22.57451
G1 X147.42 Y130.51 E22.59875
G1 X146.932 Y131.21 E22.63848
G1 X138.494 Y142.785 E23.30547
G1 X138.056 Y143.367 E23.33939
G1 X137.461 Y144.092 E23.38306
G1 X136.912 Y144.705 E23.42138
G1 X136.669 Y144.967 E23.43802
G1 X136.256 Y145.399 E23.46585
G1 X135.63 Y146.005 E23.50642
G1 X135.388 Y146.221 E23.52153
G1 X135.101 Y146.468 E23.53916
G1 X134.558 Y146.919 E23.57203
G1 X134.003 Y147.368 E23.60527
G1 X132.979 Y148.103 E23.66396
G1 X131.719 Y148.891 E23.73316
G1 X131.169 Y149.217 E23.76293
G1 X129.999 Y149.819 E23.8242
G1 X128.999 Y150.26 E23.87509
G1 X128.66 Y150.402 E23.8922
G1 X128.055 Y150.645 E23.92256
G1 X127.08 Y150.985 E23.97064
G1 X126.216 Y151.241 E24.01261
G1 X125.874 Y151.336 E24.02913
G1 X125.526 Y151.427 E24.04588
G1 X124.567 Y151.633 E24.09156
G1 X123.687 Y151.781 E24.13311
G1 X123.369 Y151.829 E24.14808
G1 X122.667 Y151.926 E24.18108
G1 X121.376 Y152.028 E24.24138
G1 X120.19 Y152.049 E24.29662
G1 X119.742 Y152.048 E24.31748
G1 X119.148 Y152.04 E24.34514
G1 X117.857 Y151.946 E24.40541
G1 X116.834 Y151.811 E24.45346
G1 X116.494 Y151.761 E24.46946
G1 X115.78 Y151.644 E24.50315
G1 X114.805 Y151.439 E24.54955
G1 X113.931 Y151.208 E24.59164
G1 X113.086 Y150.961 E24.63263
G1 X112.599 Y150.806 E24.65643
G1 X98.66 Y146.221 E25.3397
G1 X98.014 Y145.999 E25.37151
G1 X97.141 Y145.657 E25.41517
G1 X96.567 Y145.382 E25.4448
G1 X95.719 Y144.946 E25.4892
G1 X95.25 Y144.694 E25.514
G1 X94.639 Y144.357 E25.54649
G1 X93.874 Y143.893 E25.58815
G1 X93.696 Y143.775 E25.59809
G1 X92.97 Y143.265 E25.63941
G1 X92.335 Y142.795 E25.67619
G1 X91.462 Y142.076 E25.72885
G1 X90.927 Y141.585 E25.76267
G1 X90.286 Y140.975 E25.80387
G1 X89.813 Y140.511 E25.83472
G1 X89.012 Y139.635 E25.89
G1 X88.788 Y139.362 E25.90644
G1 X88.565 Y139.082 E25.92311
G1 X87.984 Y138.322 E25.96765
G1 X87.608 Y137.817 E25.99697
G1 X86.911 Y136.759 E26.05596
G1 X86.342 Y135.768 E26.10917
G1 X85.955 Y135.054 E26.14699
G1 X85.433 Y133.948 E26.20394
G1 X84.987 Y132.837 E26.25968
G1 X84.745 Y132.189 E26.29189
G1 X84.374 Y130.991 E26.35029
G1 X84.069 Y129.747 E26.40993
G1 X83.926 Y129.102 E26.4407
G1 X83.72 Y127.817 E26.50129
G1 X83.585 Y126.421 E26.5666
G1 X83.528 Y125.597 E26.60506
G1 X83.503 Y124.973 E26.63414
G1 X83.495 Y124.179 E26.67112
G1 X83.499 Y123.685 E26.69412
G1 X83.49 Y116.767 E27.01625
G1 X83.512 Y109.955 E27.33345
G1 X83.522 Y109.413 E27.35869
G1 X83.584 Y108.434 E27.40437
G1 X83.7 Y107.361 E27.45462
G1 X83.747 Y106.987 E27.47217
G1 X83.834 Y106.378 E27.50082
G1 X84.097 Y105.09 E27.56203
G1 X84.446 Y103.797 E27.62439
G1 X84.624 Y103.189 E27.65389
G1 X85.073 Y101.942 E27.71561
G1 X85.5 Y100.947 E27.76602
G1 X85.642 Y100.63 E27.7822
G1 X85.954 Y99.962 E27.81653
G1 X86.587 Y98.795 E27.87835
G1 X87.174 Y97.854 E27.92999
